; G-Code generated by Simplify3D(R) Version 3.0.2
; Sep 29, 2015 at 2:59:54 PM
; Settings Summary
;   processName,Process1
;   applyToModels,twistedKnobUpsideDown
;   profileName,PrinterBot Simple Metal Custom (modified)
;   profileVersion,2015-05-01 08:00:00
;   baseProfile,Default (modified)
;   printMaterial,SS PLA
;   printQuality,Medium
;   printExtruders,
;   extruderName,Primary Extruder
;   extruderToolheadNumber,0
;   extruderDiameter,0.4
;   extruderAutoWidth,0
;   extruderWidth,0.4
;   extrusionMultiplier,1.2
;   extruderUseRetract,1
;   extruderRetractionDistance,1.5
;   extruderExtraRestartDistance,0
;   extruderRetractionZLift,0
;   extruderRetractionSpeed,1800
;   extruderUseCoasting,0
;   extruderCoastingDistance,0.2
;   extruderUseWipe,0
;   extruderWipeDistance,5
;   primaryExtruder,0
;   layerHeight,0.2
;   topSolidLayers,3
;   bottomSolidLayers,3
;   perimeterOutlines,2
;   printPerimetersInsideOut,1
;   startPointOption,2
;   startPointOriginX,0
;   startPointOriginY,0
;   startPointOriginZ,300
;   sequentialIslands,0
;   spiralVaseMode,0
;   firstLayerHeightPercentage,90
;   firstLayerWidthPercentage,100
;   firstLayerUnderspeed,0.5
;   useRaft,0
;   raftExtruder,0
;   raftLayers,3
;   raftOffset,3
;   raftSeparationDistance,0.14
;   raftInfill,85
;   disableRaftBaseLayers,0
;   useSkirt,1
;   skirtExtruder,0
;   skirtLayers,1
;   skirtOutlines,5
;   skirtOffset,4
;   usePrimePillar,0
;   primePillarExtruder,999
;   primePillarWidth,12
;   primePillarLocation,7
;   primePillarSpeedMultiplier,1
;   useOozeShield,0
;   oozeShieldExtruder,999
;   oozeShieldOffset,2
;   oozeShieldOutlines,1
;   oozeShieldSidewallShape,1
;   oozeShieldSidewallAngle,30
;   oozeShieldSpeedMultiplier,1
;   infillExtruder,0
;   internalInfillPattern,Rectilinear
;   externalInfillPattern,Rectilinear
;   infillPercentage,20
;   outlineOverlapPercentage,15
;   infillExtrusionWidthPercentage,100
;   minInfillLength,5
;   infillLayerInterval,1
;   infillAngles,45,-45
;   overlapInfillAngles,0
;   generateSupport,0
;   supportExtruder,0
;   supportInfillPercentage,30
;   supportExtraInflation,0.4
;   denseSupportLayers,0
;   denseSupportInfillPercentage,70
;   supportLayerInterval,1
;   supportHorizontalPartOffset,0.3
;   supportUpperSeparationLayers,1
;   supportLowerSeparationLayers,1
;   supportType,0
;   supportGridSpacing,4
;   maxOverhangAngle,45
;   supportAngles,0
;   temperatureName,Primary Extruder,Heated Bed
;   temperatureNumber,0,1
;   temperatureSetpointCount,3,1
;   temperatureSetpointLayers,1,2,3,1
;   temperatureSetpointTemperatures,210,200,190,50
;   temperatureStabilizeAtStartup,1,1
;   temperatureHeatedBed,0,1
;   temperatureRelayBetweenLayers,0,0
;   temperatureRelayBetweenLoops,0,0
;   fanLayers,1,2
;   fanSpeeds,0,100
;   blipFanToFullPower,1
;   adjustSpeedForCooling,1
;   minSpeedLayerTime,15
;   minCoolingSpeedSlowdown,20
;   increaseFanForCooling,0
;   minFanLayerTime,45
;   maxCoolingFanSpeed,100
;   increaseFanForBridging,0
;   bridgingFanSpeed,100
;   use5D,1
;   relativeEdistances,0
;   allowEaxisZeroing,1
;   independentExtruderAxes,0
;   includeM10123,0
;   stickySupport,1
;   applyToolheadOffsets,0
;   gcodeXoffset,0
;   gcodeYoffset,0
;   gcodeZoffset,0
;   overrideMachineDefinition,1
;   machineTypeOverride,0
;   strokeXoverride,150
;   strokeYoverride,150
;   strokeZoverride,150
;   originOffsetXoverride,0
;   originOffsetYoverride,0
;   originOffsetZoverride,0
;   homeXdirOverride,-1
;   homeYdirOverride,-1
;   homeZdirOverride,-1
;   flipXoverride,1
;   flipYoverride,-1
;   flipZoverride,1
;   toolheadOffsets,0,0|0,0|0,0|0,0|0,0|0,0
;   overrideFirmwareConfiguration,1
;   firmwareTypeOverride,RepRap (Marlin/Repetier/Sprinter)
;   GPXconfigOverride,r2
;   baudRateOverride,250000
;   overridePrinterModels,1
;   printerModelsOverride
;   startingGcode,G28 X0 Y0 ; home X and Y axes,G29 ; probe z
;   layerChangeGcode,
;   retractionGcode,
;   toolChangeGcode,
;   endingGcode,M104 S0 T0 ; turn off extruder,M140 S0 T1 ; turn off bed,G28 X0 Y0 ; home,M84 ; disable motors
;   createX3G,0
;   celebration,0
;   celebrationSong,Random Song
;   createMB5G,0
;   postProcessing,
;   defaultSpeed,1800
;   outlineUnderspeed,0.8
;   solidInfillUnderspeed,0.8
;   supportUnderspeed,0.8
;   rapidXYspeed,4200
;   rapidZspeed,1002
;   minBridgingArea,50
;   bridgingExtraInflation,0
;   bridgingExtrusionMultiplier,1
;   bridgingSpeedMultiplier,1
;   filamentDiameter,1.75
;   filamentPricePerKg,22
;   filamentDensity,1.25
;   useMinPrintHeight,0
;   minPrintHeight,0
;   useMaxPrintHeight,0
;   maxPrintHeight,0
;   useDiaphragm,0
;   diaphragmLayerInterval,20
;   robustSlicing,1
;   mergeAllIntoSolid,0
;   onlyRetractWhenCrossingOutline,1
;   retractBetweenLayers,1
;   useRetractionMinTravel,0
;   retractionMinTravel,3
;   retractWhileWiping,0
;   onlyWipeOutlines,1
;   avoidCrossingOutline,0
;   maxMovementDetourFactor,3
;   toolChangeRetractionDistance,12
;   toolChangeExtraRestartDistance,-0.5
;   toolChangeRetractionSpeed,600
;   allowThinWallGapFill,1
;   thinWallAllowedOverlapPercentage,10
;   horizontalSizeCompensation,0
G90
M82
M106 S0
M140 S50
M190 S50
M104 S210 T0
M109 S210 T0
G28 X0 Y0 ; home X and Y axes
G29 ; probe z
G92 E0
G1 E-1.5000 F1800
G1 Z0.180 F1002
; layer 1, Z = 0.18
T0
; tool H0.200 W0.400
; skirt
G1 X60.854 Y61.081 F4200
G1 E0.0000 F540
G92 E0
G1 X61.081 Y60.854 E0.0128 F900
G1 X61.124 Y60.814 E0.0152
G1 X62.746 Y59.391 E0.1013
G1 X62.792 Y59.354 E0.1036
G1 X63.046 Y59.158 E0.1164
G1 X63.094 Y59.124 E0.1188
G1 X64.889 Y57.925 E0.2049
G1 X64.939 Y57.894 E0.2073
G1 X65.216 Y57.734 E0.2201
G1 X65.268 Y57.706 E0.2224
G1 X67.204 Y56.751 E0.3086
G1 X67.257 Y56.727 E0.3109
G1 X67.554 Y56.604 E0.3237
G1 X67.609 Y56.583 E0.3261
G1 X69.652 Y55.890 E0.4122
G1 X69.709 Y55.873 E0.4145
G1 X70.019 Y55.790 E0.4273
G1 X70.076 Y55.776 E0.4297
G1 X72.193 Y55.355 E0.5158
G1 X72.251 Y55.346 E0.5182
G1 X72.569 Y55.304 E0.5310
G1 X72.627 Y55.298 E0.5333
G1 X74.781 Y55.157 E0.6195
G1 X74.840 Y55.155 E0.6218
G1 X75.160 Y55.155 E0.6346
G1 X75.219 Y55.157 E0.6370
G1 X77.373 Y55.298 E0.7231
G1 X77.431 Y55.304 E0.7255
G1 X77.749 Y55.346 E0.7383
G1 X77.807 Y55.355 E0.7406
G1 X79.924 Y55.776 E0.8267
G1 X79.981 Y55.790 E0.8291
G1 X80.291 Y55.873 E0.8419
G1 X80.348 Y55.890 E0.8442
G1 X82.391 Y56.583 E0.9304
G1 X82.446 Y56.604 E0.9327
G1 X82.743 Y56.727 E0.9455
G1 X82.796 Y56.751 E0.9479
G1 X84.732 Y57.706 E1.0340
G1 X84.784 Y57.734 E1.0364
G1 X85.061 Y57.894 E1.0492
G1 X85.111 Y57.925 E1.0515
G1 X86.906 Y59.124 E1.1376
G1 X86.954 Y59.158 E1.1400
G1 X87.208 Y59.354 E1.1528
G1 X87.254 Y59.391 E1.1552
G1 X88.876 Y60.814 E1.2413
G1 X88.919 Y60.854 E1.2436
G1 X89.146 Y61.081 E1.2564
G1 X89.186 Y61.124 E1.2588
G1 X90.609 Y62.746 E1.3449
G1 X90.646 Y62.792 E1.3473
G1 X90.842 Y63.046 E1.3601
G1 X90.876 Y63.094 E1.3624
G1 X92.075 Y64.889 E1.4486
G1 X92.106 Y64.939 E1.4509
G1 X92.266 Y65.216 E1.4637
G1 X92.294 Y65.268 E1.4661
G1 X93.249 Y67.204 E1.5522
G1 X93.273 Y67.257 E1.5545
G1 X93.396 Y67.554 E1.5673
G1 X93.416 Y67.609 E1.5697
G1 X94.110 Y69.652 E1.6558
G1 X94.127 Y69.709 E1.6582
G1 X94.210 Y70.019 E1.6710
G1 X94.224 Y70.076 E1.6733
G1 X94.645 Y72.193 E1.7595
G1 X94.654 Y72.251 E1.7618
G1 X94.696 Y72.569 E1.7746
G1 X94.702 Y72.627 E1.7770
G1 X94.843 Y74.781 E1.8631
G1 X94.845 Y74.840 E1.8654
G1 X94.845 Y75.160 E1.8783
G1 X94.843 Y75.219 E1.8806
G1 X94.702 Y77.373 E1.9667
G1 X94.696 Y77.431 E1.9691
G1 X94.654 Y77.749 E1.9819
G1 X94.645 Y77.807 E1.9842
G1 X94.224 Y79.924 E2.0704
G1 X94.210 Y79.981 E2.0727
G1 X94.127 Y80.291 E2.0855
G1 X94.110 Y80.348 E2.0879
G1 X93.417 Y82.391 E2.1740
G1 X93.396 Y82.446 E2.1764
G1 X93.273 Y82.743 E2.1892
G1 X93.249 Y82.796 E2.1915
G1 X92.294 Y84.732 E2.2776
G1 X92.266 Y84.784 E2.2800
G1 X92.106 Y85.061 E2.2928
G1 X92.075 Y85.111 E2.2951
G1 X90.876 Y86.906 E2.3813
G1 X90.842 Y86.954 E2.3836
G1 X90.646 Y87.208 E2.3964
G1 X90.609 Y87.254 E2.3988
G1 X89.186 Y88.876 E2.4849
G1 X89.146 Y88.919 E2.4873
G1 X88.919 Y89.146 E2.5001
G1 X88.876 Y89.186 E2.5024
G1 X87.254 Y90.609 E2.5885
G1 X87.208 Y90.646 E2.5909
G1 X86.954 Y90.842 E2.6037
G1 X86.906 Y90.876 E2.6061
G1 X85.111 Y92.075 E2.6922
G1 X85.061 Y92.106 E2.6945
G1 X84.784 Y92.266 E2.7073
G1 X84.732 Y92.294 E2.7097
G1 X82.796 Y93.249 E2.7958
G1 X82.743 Y93.273 E2.7982
G1 X82.446 Y93.396 E2.8110
G1 X82.391 Y93.416 E2.8133
G1 X80.348 Y94.110 E2.8995
G1 X80.291 Y94.127 E2.9018
G1 X79.981 Y94.210 E2.9146
G1 X79.924 Y94.224 E2.9170
G1 X77.807 Y94.645 E3.0031
G1 X77.749 Y94.654 E3.0054
G1 X77.431 Y94.696 E3.0182
G1 X77.373 Y94.702 E3.0206
G1 X75.219 Y94.843 E3.1067
G1 X75.160 Y94.845 E3.1091
G1 X74.840 Y94.845 E3.1219
G1 X74.781 Y94.843 E3.1242
G1 X72.627 Y94.702 E3.2104
G1 X72.569 Y94.696 E3.2127
G1 X72.251 Y94.654 E3.2255
G1 X72.193 Y94.645 E3.2279
G1 X70.076 Y94.224 E3.3140
G1 X70.019 Y94.210 E3.3163
G1 X69.709 Y94.127 E3.3292
G1 X69.652 Y94.110 E3.3315
G1 X67.609 Y93.416 E3.4176
G1 X67.554 Y93.396 E3.4200
G1 X67.257 Y93.273 E3.4328
G1 X67.204 Y93.249 E3.4351
G1 X65.268 Y92.294 E3.5213
G1 X65.216 Y92.266 E3.5236
G1 X64.939 Y92.106 E3.5364
G1 X64.889 Y92.075 E3.5388
G1 X63.094 Y90.876 E3.6249
G1 X63.046 Y90.842 E3.6273
G1 X62.792 Y90.646 E3.6401
G1 X62.746 Y90.609 E3.6424
G1 X61.124 Y89.186 E3.7285
G1 X61.081 Y89.146 E3.7309
G1 X60.854 Y88.919 E3.7437
G1 X60.814 Y88.876 E3.7460
G1 X59.391 Y87.254 E3.8322
G1 X59.354 Y87.208 E3.8345
G1 X59.158 Y86.954 E3.8473
G1 X59.124 Y86.906 E3.8497
G1 X57.925 Y85.111 E3.9358
G1 X57.894 Y85.061 E3.9382
G1 X57.734 Y84.784 E3.9510
G1 X57.706 Y84.732 E3.9533
G1 X56.751 Y82.796 E4.0394
G1 X56.727 Y82.743 E4.0418
G1 X56.604 Y82.446 E4.0546
G1 X56.583 Y82.391 E4.0570
G1 X55.890 Y80.348 E4.1431
G1 X55.873 Y80.291 E4.1454
G1 X55.790 Y79.981 E4.1582
G1 X55.776 Y79.924 E4.1606
G1 X55.355 Y77.807 E4.2467
G1 X55.346 Y77.749 E4.2491
G1 X55.304 Y77.431 E4.2619
G1 X55.298 Y77.373 E4.2642
G1 X55.157 Y75.219 E4.3504
G1 X55.155 Y75.160 E4.3527
G1 X55.155 Y74.840 E4.3655
G1 X55.157 Y74.781 E4.3679
G1 X55.298 Y72.627 E4.4540
G1 X55.304 Y72.569 E4.4563
G1 X55.346 Y72.251 E4.4691
G1 X55.355 Y72.193 E4.4715
G1 X55.776 Y70.076 E4.5576
G1 X55.790 Y70.019 E4.5600
G1 X55.873 Y69.709 E4.5728
G1 X55.890 Y69.652 E4.5751
G1 X56.583 Y67.609 E4.6613
G1 X56.604 Y67.554 E4.6636
G1 X56.727 Y67.257 E4.6764
G1 X56.751 Y67.204 E4.6788
G1 X57.706 Y65.268 E4.7649
G1 X57.734 Y65.216 E4.7673
G1 X57.894 Y64.939 E4.7801
G1 X57.925 Y64.889 E4.7824
G1 X59.124 Y63.094 E4.8685
G1 X59.158 Y63.046 E4.8709
G1 X59.354 Y62.792 E4.8837
G1 X59.391 Y62.746 E4.8860
G1 X60.814 Y61.124 E4.9722
G1 X60.854 Y61.081 E4.9745
G1 X61.142 Y61.359 F4200
G92 E0
G1 X61.359 Y61.142 E0.0123 F900
G1 X61.393 Y61.110 E0.0141
G1 X63.005 Y59.696 E0.0997
G1 X63.041 Y59.667 E0.1015
G1 X63.285 Y59.480 E0.1138
G1 X63.322 Y59.453 E0.1157
G1 X65.105 Y58.261 E0.2013
G1 X65.144 Y58.237 E0.2031
G1 X65.411 Y58.083 E0.2154
G1 X65.451 Y58.062 E0.2172
G1 X67.375 Y57.113 E0.3028
G1 X67.417 Y57.094 E0.3046
G1 X67.701 Y56.976 E0.3169
G1 X67.744 Y56.960 E0.3187
G1 X69.775 Y56.271 E0.4044
G1 X69.819 Y56.257 E0.4062
G1 X70.116 Y56.178 E0.4185
G1 X70.160 Y56.167 E0.4203
G1 X72.264 Y55.749 E0.5059
G1 X72.309 Y55.741 E0.5077
G1 X72.614 Y55.701 E0.5200
G1 X72.660 Y55.697 E0.5218
G1 X74.800 Y55.556 E0.6074
G1 X74.846 Y55.555 E0.6093
G1 X75.154 Y55.555 E0.6216
G1 X75.200 Y55.556 E0.6234
G1 X77.340 Y55.697 E0.7090
G1 X77.386 Y55.701 E0.7108
G1 X77.691 Y55.741 E0.7231
G1 X77.736 Y55.749 E0.7249
G1 X79.840 Y56.167 E0.8105
G1 X79.884 Y56.178 E0.8124
G1 X80.181 Y56.257 E0.8246
G1 X80.225 Y56.271 E0.8265
G1 X82.256 Y56.960 E0.9121
G1 X82.299 Y56.976 E0.9139
G1 X82.583 Y57.094 E0.9262
G1 X82.625 Y57.113 E0.9280
G1 X84.549 Y58.062 E1.0136
G1 X84.589 Y58.083 E1.0155
G1 X84.856 Y58.237 E1.0277
G1 X84.895 Y58.261 E1.0296
G1 X86.678 Y59.453 E1.1152
G1 X86.715 Y59.480 E1.1170
G1 X86.959 Y59.667 E1.1293
G1 X86.995 Y59.696 E1.1311
G1 X88.607 Y61.110 E1.2167
G1 X88.641 Y61.142 E1.2186
G1 X88.858 Y61.359 E1.2308
G1 X88.890 Y61.393 E1.2327
G1 X90.304 Y63.005 E1.3183
G1 X90.333 Y63.041 E1.3201
G1 X90.520 Y63.285 E1.3324
G1 X90.547 Y63.322 E1.3342
G1 X91.739 Y65.105 E1.4198
G1 X91.763 Y65.144 E1.4216
G1 X91.917 Y65.411 E1.4339
G1 X91.938 Y65.451 E1.4358
G1 X92.887 Y67.375 E1.5214
G1 X92.906 Y67.417 E1.5232
G1 X93.024 Y67.701 E1.5355
G1 X93.040 Y67.744 E1.5373
G1 X93.729 Y69.775 E1.6229
G1 X93.743 Y69.819 E1.6247
G1 X93.822 Y70.116 E1.6370
G1 X93.833 Y70.160 E1.6388
G1 X94.251 Y72.264 E1.7245
G1 X94.259 Y72.309 E1.7263
G1 X94.299 Y72.614 E1.7386
G1 X94.303 Y72.660 E1.7404
G1 X94.444 Y74.800 E1.8260
G1 X94.445 Y74.846 E1.8278
G1 X94.445 Y75.154 E1.8401
G1 X94.444 Y75.200 E1.8419
G1 X94.303 Y77.340 E1.9275
G1 X94.299 Y77.386 E1.9294
G1 X94.259 Y77.691 E1.9417
G1 X94.251 Y77.736 E1.9435
G1 X93.833 Y79.839 E2.0291
G1 X93.822 Y79.884 E2.0309
G1 X93.743 Y80.181 E2.0432
G1 X93.729 Y80.225 E2.0450
G1 X93.040 Y82.256 E2.1306
G1 X93.024 Y82.299 E2.1325
G1 X92.906 Y82.583 E2.1447
G1 X92.887 Y82.625 E2.1466
G1 X91.938 Y84.549 E2.2322
G1 X91.917 Y84.589 E2.2340
G1 X91.763 Y84.856 E2.2463
G1 X91.739 Y84.895 E2.2481
G1 X90.547 Y86.678 E2.3337
G1 X90.520 Y86.715 E2.3356
G1 X90.333 Y86.959 E2.3478
G1 X90.304 Y86.995 E2.3497
G1 X88.890 Y88.607 E2.4353
G1 X88.858 Y88.641 E2.4371
G1 X88.641 Y88.858 E2.4494
G1 X88.607 Y88.890 E2.4512
G1 X86.995 Y90.304 E2.5368
G1 X86.959 Y90.333 E2.5386
G1 X86.715 Y90.520 E2.5509
G1 X86.678 Y90.547 E2.5528
G1 X84.895 Y91.739 E2.6384
G1 X84.856 Y91.763 E2.6402
G1 X84.589 Y91.917 E2.6525
G1 X84.549 Y91.938 E2.6543
G1 X82.625 Y92.887 E2.7399
G1 X82.583 Y92.906 E2.7417
G1 X82.299 Y93.024 E2.7540
G1 X82.256 Y93.040 E2.7558
G1 X80.225 Y93.729 E2.8415
G1 X80.181 Y93.743 E2.8433
G1 X79.884 Y93.822 E2.8556
G1 X79.839 Y93.833 E2.8574
G1 X77.736 Y94.251 E2.9430
G1 X77.691 Y94.259 E2.9448
G1 X77.386 Y94.299 E2.9571
G1 X77.340 Y94.303 E2.9589
G1 X75.200 Y94.444 E3.0445
G1 X75.154 Y94.445 E3.0464
G1 X74.846 Y94.445 E3.0587
G1 X74.800 Y94.444 E3.0605
G1 X72.660 Y94.303 E3.1461
G1 X72.614 Y94.299 E3.1479
G1 X72.309 Y94.259 E3.1602
G1 X72.264 Y94.251 E3.1620
G1 X70.160 Y93.833 E3.2476
G1 X70.116 Y93.822 E3.2495
G1 X69.819 Y93.743 E3.2618
G1 X69.775 Y93.729 E3.2636
G1 X67.744 Y93.040 E3.3492
G1 X67.701 Y93.024 E3.3510
G1 X67.417 Y92.906 E3.3633
G1 X67.375 Y92.887 E3.3651
G1 X65.451 Y91.938 E3.4507
G1 X65.411 Y91.917 E3.4526
G1 X65.144 Y91.763 E3.4648
G1 X65.105 Y91.739 E3.4667
G1 X63.322 Y90.547 E3.5523
G1 X63.285 Y90.520 E3.5541
G1 X63.041 Y90.333 E3.5664
G1 X63.005 Y90.304 E3.5682
G1 X61.393 Y88.890 E3.6538
G1 X61.359 Y88.858 E3.6557
G1 X61.142 Y88.641 E3.6679
G1 X61.110 Y88.607 E3.6698
G1 X59.696 Y86.995 E3.7554
G1 X59.667 Y86.959 E3.7572
G1 X59.480 Y86.715 E3.7695
G1 X59.453 Y86.678 E3.7713
G1 X58.261 Y84.895 E3.8569
G1 X58.237 Y84.856 E3.8587
G1 X58.083 Y84.589 E3.8710
G1 X58.062 Y84.549 E3.8729
G1 X57.113 Y82.625 E3.9585
G1 X57.094 Y82.583 E3.9603
G1 X56.976 Y82.299 E3.9726
G1 X56.960 Y82.256 E3.9744
G1 X56.271 Y80.225 E4.0600
G1 X56.257 Y80.181 E4.0618
G1 X56.178 Y79.884 E4.0741
G1 X56.167 Y79.839 E4.0759
G1 X55.749 Y77.736 E4.1616
G1 X55.741 Y77.691 E4.1634
G1 X55.701 Y77.386 E4.1757
G1 X55.697 Y77.340 E4.1775
G1 X55.556 Y75.200 E4.2631
G1 X55.555 Y75.154 E4.2649
G1 X55.555 Y74.846 E4.2772
G1 X55.556 Y74.800 E4.2790
G1 X55.697 Y72.660 E4.3646
G1 X55.701 Y72.615 E4.3665
G1 X55.741 Y72.309 E4.3788
G1 X55.749 Y72.264 E4.3806
G1 X56.167 Y70.160 E4.4662
G1 X56.178 Y70.116 E4.4680
G1 X56.257 Y69.819 E4.4803
G1 X56.271 Y69.775 E4.4821
G1 X56.960 Y67.744 E4.5677
G1 X56.976 Y67.701 E4.5696
G1 X57.094 Y67.417 E4.5818
G1 X57.113 Y67.375 E4.5837
G1 X58.062 Y65.451 E4.6693
G1 X58.083 Y65.411 E4.6711
G1 X58.237 Y65.144 E4.6834
G1 X58.261 Y65.105 E4.6852
G1 X59.453 Y63.322 E4.7708
G1 X59.480 Y63.285 E4.7727
G1 X59.667 Y63.041 E4.7849
G1 X59.696 Y63.005 E4.7868
G1 X61.110 Y61.393 E4.8724
G1 X61.142 Y61.359 E4.8742
G1 X61.429 Y61.637 F4200
G92 E0
G1 X61.637 Y61.429 E0.0118 F900
G1 X61.661 Y61.407 E0.0131
G1 X63.264 Y60.001 E0.0981
G1 X63.289 Y59.980 E0.0995
G1 X63.523 Y59.801 E0.1112
G1 X63.550 Y59.782 E0.1125
