; G-Code generated by Simplify3D(R) Version 3.0.2
; Oct 2, 2015 at 9:45:33 AM
; Settings Summary
;   processName,Process1
;   applyToModels,twistedKnobUpsideDown,twistedKnobUpsideDown(2),twistedKnobUpsideDown(3),twistedKnobUpsideDown(4)
;   profileName,PrinterBot Simple Metal Custom (modified)
;   profileVersion,2015-05-01 08:00:00
;   baseProfile,Default (modified)
;   printMaterial,SS PLA
;   printQuality,Medium
;   printExtruders,
;   extruderName,Primary Extruder
;   extruderToolheadNumber,0
;   extruderDiameter,0.4
;   extruderAutoWidth,0
;   extruderWidth,0.4
;   extrusionMultiplier,1.2
;   extruderUseRetract,1
;   extruderRetractionDistance,1.5
;   extruderExtraRestartDistance,0
;   extruderRetractionZLift,0
;   extruderRetractionSpeed,1800
;   extruderUseCoasting,0
;   extruderCoastingDistance,0.2
;   extruderUseWipe,0
;   extruderWipeDistance,5
;   primaryExtruder,0
;   layerHeight,0.2
;   topSolidLayers,3
;   bottomSolidLayers,3
;   perimeterOutlines,2
;   printPerimetersInsideOut,1
;   startPointOption,2
;   startPointOriginX,0
;   startPointOriginY,0
;   startPointOriginZ,300
;   sequentialIslands,0
;   spiralVaseMode,0
;   firstLayerHeightPercentage,70
;   firstLayerWidthPercentage,100
;   firstLayerUnderspeed,0.5
;   useRaft,0
;   raftExtruder,0
;   raftLayers,3
;   raftOffset,3
;   raftSeparationDistance,0.14
;   raftInfill,85
;   disableRaftBaseLayers,0
;   useSkirt,1
;   skirtExtruder,0
;   skirtLayers,1
;   skirtOutlines,5
;   skirtOffset,4
;   usePrimePillar,0
;   primePillarExtruder,999
;   primePillarWidth,12
;   primePillarLocation,7
;   primePillarSpeedMultiplier,1
;   useOozeShield,0
;   oozeShieldExtruder,999
;   oozeShieldOffset,2
;   oozeShieldOutlines,1
;   oozeShieldSidewallShape,1
;   oozeShieldSidewallAngle,30
;   oozeShieldSpeedMultiplier,1
;   infillExtruder,0
;   internalInfillPattern,Rectilinear
;   externalInfillPattern,Rectilinear
;   infillPercentage,20
;   outlineOverlapPercentage,15
;   infillExtrusionWidthPercentage,100
;   minInfillLength,5
;   infillLayerInterval,1
;   infillAngles,45,-45
;   overlapInfillAngles,0
;   generateSupport,0
;   supportExtruder,0
;   supportInfillPercentage,30
;   supportExtraInflation,0.4
;   denseSupportLayers,0
;   denseSupportInfillPercentage,70
;   supportLayerInterval,1
;   supportHorizontalPartOffset,0.3
;   supportUpperSeparationLayers,1
;   supportLowerSeparationLayers,1
;   supportType,0
;   supportGridSpacing,4
;   maxOverhangAngle,45
;   supportAngles,0
;   temperatureName,Primary Extruder,Heated Bed
;   temperatureNumber,0,1
;   temperatureSetpointCount,3,1
;   temperatureSetpointLayers,1,2,3,1
;   temperatureSetpointTemperatures,210,200,190,50
;   temperatureStabilizeAtStartup,1,1
;   temperatureHeatedBed,0,1
;   temperatureRelayBetweenLayers,0,0
;   temperatureRelayBetweenLoops,0,0
;   fanLayers,1,2
;   fanSpeeds,0,100
;   blipFanToFullPower,1
;   adjustSpeedForCooling,1
;   minSpeedLayerTime,15
;   minCoolingSpeedSlowdown,20
;   increaseFanForCooling,0
;   minFanLayerTime,45
;   maxCoolingFanSpeed,100
;   increaseFanForBridging,0
;   bridgingFanSpeed,100
;   use5D,1
;   relativeEdistances,0
;   allowEaxisZeroing,1
;   independentExtruderAxes,0
;   includeM10123,0
;   stickySupport,1
;   applyToolheadOffsets,0
;   gcodeXoffset,0
;   gcodeYoffset,0
;   gcodeZoffset,0
;   overrideMachineDefinition,1
;   machineTypeOverride,0
;   strokeXoverride,150
;   strokeYoverride,150
;   strokeZoverride,150
;   originOffsetXoverride,0
;   originOffsetYoverride,0
;   originOffsetZoverride,0
;   homeXdirOverride,-1
;   homeYdirOverride,-1
;   homeZdirOverride,-1
;   flipXoverride,1
;   flipYoverride,-1
;   flipZoverride,1
;   toolheadOffsets,0,0|0,0|0,0|0,0|0,0|0,0
;   overrideFirmwareConfiguration,1
;   firmwareTypeOverride,RepRap (Marlin/Repetier/Sprinter)
;   GPXconfigOverride,r2
;   baudRateOverride,250000
;   overridePrinterModels,1
;   printerModelsOverride
;   startingGcode,G28 X0 Y0 ; home X and Y axes,G29 ; probe z
;   layerChangeGcode,
;   retractionGcode,
;   toolChangeGcode,
;   endingGcode,M104 S0 T0 ; turn off extruder,M140 S0 T1 ; turn off bed,G28 X0 Y0 ; home,M84 ; disable motors
;   createX3G,0
;   celebration,0
;   celebrationSong,Random Song
;   createMB5G,0
;   postProcessing,
;   defaultSpeed,2400
;   outlineUnderspeed,0.8
;   solidInfillUnderspeed,0.8
;   supportUnderspeed,0.8
;   rapidXYspeed,4200
;   rapidZspeed,1002
;   minBridgingArea,50
;   bridgingExtraInflation,0
;   bridgingExtrusionMultiplier,1
;   bridgingSpeedMultiplier,1
;   filamentDiameter,1.75
;   filamentPricePerKg,22
;   filamentDensity,1.25
;   useMinPrintHeight,0
;   minPrintHeight,0
;   useMaxPrintHeight,0
;   maxPrintHeight,0
;   useDiaphragm,0
;   diaphragmLayerInterval,20
;   robustSlicing,1
;   mergeAllIntoSolid,0
;   onlyRetractWhenCrossingOutline,1
;   retractBetweenLayers,1
;   useRetractionMinTravel,0
;   retractionMinTravel,3
;   retractWhileWiping,0
;   onlyWipeOutlines,1
;   avoidCrossingOutline,0
;   maxMovementDetourFactor,3
;   toolChangeRetractionDistance,12
;   toolChangeExtraRestartDistance,-0.5
;   toolChangeRetractionSpeed,600
;   allowThinWallGapFill,1
;   thinWallAllowedOverlapPercentage,10
;   horizontalSizeCompensation,0
G90
M82
M106 S0
M140 S50
M190 S50
M104 S210 T0
M109 S210 T0
G28 X0 Y0 ; home X and Y axes
G29 ; probe z
G92 E0
G1 E-1.5000 F1800
G1 Z0.140 F1002
; layer 1, Z = 0.14
T0
; tool H0.200 W0.400
; skirt
G1 X14.763 Y15.114 F4200
G1 E0.0000 F540
G92 E0
G1 X16.382 Y13.693 E0.0860 F1200
G1 X16.428 Y13.655 E0.0884
G1 X16.683 Y13.460 E0.1012
G1 X16.731 Y13.425 E0.1035
G1 X18.524 Y12.227 E0.1896
G1 X18.574 Y12.196 E0.1920
G1 X18.851 Y12.036 E0.2047
G1 X18.903 Y12.008 E0.2071
G1 X20.839 Y11.053 E0.2933
G1 X20.893 Y11.029 E0.2956
G1 X21.192 Y10.905 E0.3085
G1 X21.248 Y10.884 E0.3109
G1 X23.289 Y10.193 E0.3969
G1 X23.345 Y10.176 E0.3992
G1 X23.650 Y10.094 E0.4119
G1 X23.707 Y10.081 E0.4142
G1 X25.821 Y9.659 E0.5002
G1 X25.879 Y9.649 E0.5026
G1 X26.199 Y9.607 E0.5155
G1 X26.258 Y9.601 E0.5178
G1 X28.412 Y9.459 E0.6040
G1 X28.471 Y9.457 E0.6064
G1 X28.793 Y9.457 E0.6192
G1 X28.852 Y9.459 E0.6215
G1 X31.003 Y9.601 E0.7076
G1 X31.062 Y9.607 E0.7099
G1 X31.381 Y9.649 E0.7228
G1 X31.439 Y9.658 E0.7251
G1 X33.553 Y10.080 E0.8112
G1 X33.610 Y10.093 E0.8135
G1 X33.919 Y10.176 E0.8263
G1 X33.975 Y10.193 E0.8286
G1 X36.016 Y10.885 E0.9146
G1 X36.071 Y10.906 E0.9170
G1 X36.367 Y11.028 E0.9298
G1 X36.421 Y11.052 E0.9321
G1 X38.358 Y12.007 E1.0183
G1 X38.410 Y12.035 E1.0207
G1 X38.689 Y12.196 E1.0335
G1 X38.740 Y12.227 E1.0359
G1 X40.532 Y13.426 E1.1220
G1 X40.580 Y13.460 E1.1243
G1 X40.833 Y13.655 E1.1371
G1 X40.878 Y13.692 E1.1394
G1 X42.499 Y15.112 E1.2254
G1 X42.543 Y15.153 E1.2278
G1 X42.771 Y15.382 E1.2407
G1 X42.812 Y15.425 E1.2431
G1 X44.233 Y17.048 E1.3291
G1 X44.270 Y17.093 E1.3315
G1 X44.462 Y17.344 E1.3441
G1 X44.496 Y17.391 E1.3464
G1 X45.696 Y19.183 E1.4325
G1 X45.727 Y19.233 E1.4349
G1 X45.889 Y19.514 E1.4478
G1 X45.917 Y19.566 E1.4502
G1 X46.131 Y19.999 E1.4694
G1 X46.345 Y19.565 E1.4888
G1 X46.373 Y19.513 E1.4911
G1 X46.534 Y19.234 E1.5040
G1 X46.565 Y19.184 E1.5063
G1 X47.764 Y17.391 E1.5924
G1 X47.798 Y17.344 E1.5948
G1 X47.994 Y17.089 E1.6075
G1 X48.031 Y17.044 E1.6099
G1 X49.454 Y15.423 E1.6960
G1 X49.494 Y15.380 E1.6983
G1 X49.720 Y15.154 E1.7111
G1 X49.763 Y15.114 E1.7134
G1 X51.382 Y13.693 E1.7994
G1 X51.428 Y13.655 E1.8018
G1 X51.683 Y13.460 E1.8146
G1 X51.731 Y13.425 E1.8170
G1 X53.524 Y12.227 E1.9030
G1 X53.574 Y12.196 E1.9054
G1 X53.851 Y12.036 E1.9182
G1 X53.903 Y12.008 E1.9205
G1 X55.839 Y11.053 E2.0067
G1 X55.893 Y11.029 E2.0090
G1 X56.192 Y10.905 E2.0219
G1 X56.248 Y10.884 E2.0243
G1 X58.289 Y10.193 E2.1103
G1 X58.345 Y10.176 E2.1127
G1 X58.650 Y10.094 E2.1253
G1 X58.707 Y10.081 E2.1276
G1 X60.821 Y9.659 E2.2136
G1 X60.879 Y9.649 E2.2160
G1 X61.199 Y9.607 E2.2289
G1 X61.258 Y9.601 E2.2313
G1 X63.412 Y9.459 E2.3174
G1 X63.471 Y9.457 E2.3198
G1 X63.793 Y9.457 E2.3326
G1 X63.852 Y9.459 E2.3350
G1 X66.003 Y9.601 E2.4210
G1 X66.062 Y9.607 E2.4234
G1 X66.381 Y9.649 E2.4362
G1 X66.439 Y9.658 E2.4386
G1 X68.553 Y10.080 E2.5246
G1 X68.610 Y10.093 E2.5269
G1 X68.919 Y10.176 E2.5397
G1 X68.975 Y10.193 E2.5420
G1 X71.016 Y10.885 E2.6280
G1 X71.071 Y10.906 E2.6304
G1 X71.367 Y11.028 E2.6432
G1 X71.421 Y11.052 E2.6455
G1 X73.358 Y12.007 E2.7317
G1 X73.410 Y12.035 E2.7341
G1 X73.689 Y12.196 E2.7470
G1 X73.740 Y12.227 E2.7493
G1 X75.532 Y13.426 E2.8354
G1 X75.580 Y13.460 E2.8377
G1 X75.833 Y13.655 E2.8505
G1 X75.878 Y13.692 E2.8528
G1 X77.499 Y15.112 E2.9388
G1 X77.543 Y15.153 E2.9412
G1 X77.771 Y15.382 E2.9541
G1 X77.812 Y15.425 E2.9565
G1 X79.233 Y17.048 E3.0426
G1 X79.270 Y17.093 E3.0449
G1 X79.462 Y17.344 E3.0575
G1 X79.496 Y17.391 E3.0598
G1 X80.696 Y19.183 E3.1459
G1 X80.727 Y19.233 E3.1483
G1 X80.889 Y19.514 E3.1612
G1 X80.917 Y19.566 E3.1636
G1 X81.871 Y21.502 E3.2497
G1 X81.895 Y21.555 E3.2521
G1 X82.018 Y21.851 E3.2648
G1 X82.038 Y21.906 E3.2672
G1 X82.732 Y23.949 E3.3533
G1 X82.749 Y24.005 E3.3556
G1 X82.831 Y24.314 E3.3684
G1 X82.845 Y24.371 E3.3707
G1 X83.266 Y26.487 E3.4568
G1 X83.276 Y26.546 E3.4592
G1 X83.318 Y26.867 E3.4721
G1 X83.324 Y26.926 E3.4745
G1 X83.463 Y29.076 E3.5605
G1 X83.465 Y29.134 E3.5628
G1 X83.465 Y29.450 E3.5754
G1 X83.463 Y29.509 E3.5778
G1 X83.324 Y31.661 E3.6638
G1 X83.318 Y31.720 E3.6662
G1 X83.276 Y32.041 E3.6791
G1 X83.266 Y32.100 E3.6815
G1 X82.845 Y34.216 E3.7676
G1 X82.831 Y34.273 E3.7700
G1 X82.749 Y34.581 E3.7827
G1 X82.732 Y34.637 E3.7850
G1 X82.039 Y36.679 E3.8711
G1 X82.019 Y36.734 E3.8734
G1 X81.895 Y37.032 E3.8863
G1 X81.871 Y37.085 E3.8887
G1 X80.917 Y39.019 E3.9747
G1 X80.889 Y39.071 E3.9771
G1 X80.729 Y39.349 E3.9898
G1 X80.698 Y39.398 E3.9922
G1 X79.499 Y41.193 E4.0783
G1 X79.465 Y41.241 E4.0807
G1 X79.268 Y41.497 E4.0936
G1 X79.231 Y41.543 E4.0959
G1 X77.808 Y43.163 E4.1820
G1 X77.768 Y43.206 E4.1843
G1 X77.543 Y43.431 E4.1970
G1 X77.501 Y43.471 E4.1994
G1 X75.880 Y44.894 E4.2854
G1 X75.834 Y44.931 E4.2878
G1 X75.578 Y45.128 E4.3007
G1 X75.530 Y45.162 E4.3031
G1 X73.737 Y46.359 E4.3891
G1 X73.688 Y46.390 E4.3914
G1 X73.412 Y46.549 E4.4041
G1 X73.361 Y46.577 E4.4064
G1 X72.923 Y46.793 E4.4259
G1 X73.358 Y47.007 E4.4452
G1 X73.410 Y47.035 E4.4476
G1 X73.689 Y47.196 E4.4605
G1 X73.740 Y47.227 E4.4629
G1 X75.532 Y48.426 E4.5489
G1 X75.580 Y48.460 E4.5513
G1 X75.833 Y48.655 E4.5640
G1 X75.878 Y48.692 E4.5663
G1 X77.499 Y50.112 E4.6524
G1 X77.543 Y50.153 E4.6547
G1 X77.771 Y50.382 E4.6676
G1 X77.812 Y50.425 E4.6700
G1 X79.233 Y52.048 E4.7561
G1 X79.270 Y52.093 E4.7584
G1 X79.462 Y52.344 E4.7711
G1 X79.496 Y52.391 E4.7734
G1 X80.696 Y54.183 E4.8594
G1 X80.727 Y54.233 E4.8618
G1 X80.889 Y54.514 E4.8747
G1 X80.917 Y54.566 E4.8771
G1 X81.871 Y56.502 E4.9632
G1 X81.895 Y56.555 E4.9656
G1 X82.018 Y56.851 E4.9784
G1 X82.038 Y56.906 E4.9807
G1 X82.732 Y58.949 E5.0668
G1 X82.749 Y59.005 E5.0691
G1 X82.831 Y59.314 E5.0819
G1 X82.845 Y59.371 E5.0842
G1 X83.266 Y61.487 E5.1704
G1 X83.276 Y61.546 E5.1727
G1 X83.318 Y61.867 E5.1857
G1 X83.324 Y61.926 E5.1880
G1 X83.463 Y64.076 E5.2740
G1 X83.465 Y64.134 E5.2763
G1 X83.465 Y64.450 E5.2890
G1 X83.463 Y64.509 E5.2913
G1 X83.324 Y66.661 E5.3774
G1 X83.318 Y66.720 E5.3797
G1 X83.276 Y67.041 E5.3927
G1 X83.266 Y67.100 E5.3950
G1 X82.845 Y69.216 E5.4811
G1 X82.831 Y69.273 E5.4835
G1 X82.749 Y69.581 E5.4962
G1 X82.732 Y69.637 E5.4986
G1 X82.039 Y71.679 E5.5846
G1 X82.019 Y71.734 E5.5870
G1 X81.895 Y72.032 E5.5998
G1 X81.871 Y72.085 E5.6022
G1 X80.917 Y74.019 E5.6883
G1 X80.889 Y74.071 E5.6906
G1 X80.729 Y74.348 E5.7034
G1 X80.698 Y74.398 E5.7057
G1 X79.499 Y76.193 E5.7919
G1 X79.465 Y76.241 E5.7942
G1 X79.268 Y76.497 E5.8071
G1 X79.231 Y76.543 E5.8095
G1 X77.808 Y78.163 E5.8955
G1 X77.768 Y78.206 E5.8979
G1 X77.543 Y78.431 E5.9106
G1 X77.501 Y78.471 E5.9129
G1 X75.880 Y79.894 E5.9990
G1 X75.834 Y79.931 E6.0013
G1 X75.578 Y80.128 E6.0142
G1 X75.530 Y80.162 E6.0166
G1 X73.737 Y81.359 E6.1026
G1 X73.688 Y81.390 E6.1049
G1 X73.412 Y81.549 E6.1176
G1 X73.361 Y81.577 E6.1200
G1 X71.425 Y82.533 E6.2061
G1 X71.371 Y82.557 E6.2085
G1 X71.073 Y82.681 E6.2214
G1 X71.017 Y82.702 E6.2238
G1 X68.973 Y83.395 E6.3099
G1 X68.917 Y83.412 E6.3122
G1 X68.606 Y83.495 E6.3251
G1 X68.549 Y83.508 E6.3274
G1 X66.434 Y83.927 E6.4135
G1 X66.376 Y83.937 E6.4158
G1 X66.060 Y83.978 E6.4285
G1 X66.002 Y83.984 E6.4309
G1 X63.852 Y84.125 E6.5169
G1 X63.793 Y84.127 E6.5192
G1 X63.471 Y84.127 E6.5321
G1 X63.412 Y84.125 E6.5344
G1 X61.260 Y83.984 E6.6205
G1 X61.201 Y83.978 E6.6229
G1 X60.884 Y83.937 E6.6357
G1 X60.826 Y83.927 E6.6380
G1 X58.712 Y83.507 E6.7240
G1 X58.655 Y83.494 E6.7264
G1 X58.346 Y83.411 E6.7391
G1 X58.290 Y83.394 E6.7414
G1 X56.246 Y82.702 E6.8276
G1 X56.191 Y82.681 E6.8299
G1 X55.890 Y82.557 E6.8429
G1 X55.835 Y82.532 E6.8453
G1 X53.900 Y81.575 E6.9315
G1 X53.849 Y81.547 E6.9338
G1 X53.576 Y81.390 E6.9464
G1 X53.527 Y81.359 E6.9487
G1 X51.734 Y80.164 E7.0347
G1 X51.686 Y80.129 E7.0371
G1 X51.428 Y79.932 E7.0500
G1 X51.382 Y79.894 E7.0524
G1 X49.761 Y78.471 E7.1385
G1 X49.719 Y78.431 E7.1408
G1 X49.493 Y78.206 E7.1535
G1 X49.453 Y78.163 E7.1559
G1 X48.031 Y76.543 E7.2419
G1 X47.993 Y76.497 E7.2443
G1 X47.797 Y76.241 E7.2571
G1 X47.763 Y76.193 E7.2595
G1 X46.564 Y74.398 E7.3457
G1 X46.533 Y74.348 E7.3480
G1 X46.373 Y74.071 E7.3608
G1 X46.345 Y74.019 E7.3631
G1 X46.131 Y73.586 E7.3824
G1 X45.917 Y74.019 E7.4017
G1 X45.889 Y74.071 E7.4041
G1 X45.729 Y74.348 E7.4169
G1 X45.698 Y74.398 E7.4192
G1 X44.499 Y76.193 E7.5054
G1 X44.465 Y76.241 E7.5077
G1 X44.268 Y76.497 E7.5206
G1 X44.231 Y76.543 E7.5230
G1 X42.808 Y78.163 E7.6090
G1 X42.768 Y78.206 E7.6113
G1 X42.543 Y78.431 E7.6240
G1 X42.501 Y78.471 E7.6264
G1 X40.880 Y79.894 E7.7124
G1 X40.834 Y79.931 E7.7148
G1 X40.578 Y80.128 E7.7277
G1 X40.530 Y80.162 E7.7301
G1 X38.737 Y81.359 E7.8161
G1 X38.688 Y81.390 E7.8184
G1 X38.412 Y81.549 E7.8311
G1 X38.361 Y81.577 E7.8335
G1 X36.425 Y82.533 E7.9196
G1 X36.371 Y82.557 E7.9220
G1 X36.073 Y82.681 E7.9349
G1 X36.017 Y82.702 E7.9372
G1 X33.973 Y83.395 E8.0234
G1 X33.917 Y83.412 E8.0257
G1 X33.606 Y83.495 E8.0386
G1 X33.549 Y83.508 E8.0409
G1 X31.434 Y83.927 E8.1270
G1 X31.376 Y83.937 E8.1293
G1 X31.060 Y83.978 E8.1420
G1 X31.002 Y83.984 E8.1444
G1 X28.852 Y84.125 E8.2304
G1 X28.793 Y84.127 E8.2327
G1 X28.471 Y84.127 E8.2455
G1 X28.412 Y84.125 E8.2479
G1 X26.260 Y83.984 E8.3340
G1 X26.201 Y83.978 E8.3364
G1 X25.884 Y83.937 E8.3491
G1 X25.826 Y83.927 E8.3515
G1 X23.712 Y83.507 E8.4375
G1 X23.655 Y83.494 E8.4398
G1 X23.346 Y83.411 E8.4526
G1 X23.290 Y83.394 E8.4549
G1 X21.246 Y82.702 E8.5410
G1 X21.191 Y82.681 E8.5434
G1 X20.890 Y82.557 E8.5564
G1 X20.835 Y82.532 E8.5588
G1 X18.900 Y81.575 E8.6450
G1 X18.849 Y81.548 E8.6473
G1 X18.576 Y81.390 E8.6599
G1 X18.527 Y81.359 E8.6622
G1 X16.734 Y80.164 E8.7482
G1 X16.686 Y80.129 E8.7506
G1 X16.428 Y79.932 E8.7635
G1 X16.382 Y79.894 E8.7659
G1 X14.761 Y78.471 E8.8520
G1 X14.719 Y78.431 E8.8543
G1 X14.493 Y78.206 E8.8670
G1 X14.453 Y78.163 E8.8693
G1 X13.031 Y76.543 E8.9554
G1 X12.993 Y76.497 E8.9578
G1 X12.797 Y76.241 E8.9706
G1 X12.763 Y76.193 E8.9730
G1 X11.564 Y74.398 E9.0591
G1 X11.533 Y74.348 E9.0615
G1 X11.373 Y74.071 E9.0743
G1 X11.345 Y74.019 E9.0766
G1 X10.391 Y72.085 E9.1627
G1 X10.366 Y72.031 E9.1650
G1 X10.243 Y71.734 E9.1779
G1 X10.223 Y71.679 E9.1802
G1 X9.530 Y69.637 E9.2663
G1 X9.513 Y69.581 E9.2686
G1 X9.431 Y69.273 E9.2814
G1 X9.417 Y69.216 E9.2837
G1 X8.995 Y67.100 E9.3698
G1 X8.986 Y67.041 E9.3722
G1 X8.944 Y66.720 E9.3851
G1 X8.938 Y66.660 E9.3875
G1 X8.799 Y64.508 E9.4736
G1 X8.797 Y64.449 E9.4759
G1 X8.797 Y64.132 E9.4886
G1 X8.799 Y64.074 E9.4909
G1 X8.939 Y61.924 E9.5769
G1 X8.945 Y61.866 E9.5793
G1 X8.987 Y61.547 E9.5921
G1 X8.996 Y61.489 E9.5944
G1 X9.417 Y59.374 E9.6805
G1 X9.430 Y59.317 E9.6828
G1 X9.512 Y59.008 E9.6956
G1 X9.529 Y58.952 E9.6979
G1 X10.222 Y56.907 E9.7841
G1 X10.243 Y56.852 E9.7865
G1 X10.366 Y56.554 E9.7993
G1 X10.391 Y56.500 E9.8017
G1 X11.345 Y54.565 E9.8878
G1 X11.373 Y54.513 E9.8902
G1 X11.534 Y54.234 E9.9030
G1 X11.565 Y54.184 E9.9054
G1 X12.764 Y52.391 E9.9914
