; G-Code generated by Simplify3D(R) Version 3.0.2
; Oct 4, 2015 at 8:50:49 AM
; Settings Summary
;   processName,Process1
;   applyToModels,twistFlatHandle
;   profileName,PrinterBot Simple Metal Custom (modified)
;   profileVersion,2015-05-01 08:00:00
;   baseProfile,Default (modified)
;   printMaterial,SS PLA
;   printQuality,Medium
;   printExtruders,
;   extruderName,Primary Extruder
;   extruderToolheadNumber,0
;   extruderDiameter,0.4
;   extruderAutoWidth,0
;   extruderWidth,0.4
;   extrusionMultiplier,1.2
;   extruderUseRetract,1
;   extruderRetractionDistance,1.5
;   extruderExtraRestartDistance,0
;   extruderRetractionZLift,0
;   extruderRetractionSpeed,1800
;   extruderUseCoasting,0
;   extruderCoastingDistance,0.2
;   extruderUseWipe,0
;   extruderWipeDistance,5
;   primaryExtruder,0
;   layerHeight,0.2
;   topSolidLayers,3
;   bottomSolidLayers,3
;   perimeterOutlines,2
;   printPerimetersInsideOut,1
;   startPointOption,2
;   startPointOriginX,0
;   startPointOriginY,0
;   startPointOriginZ,300
;   sequentialIslands,0
;   spiralVaseMode,0
;   firstLayerHeightPercentage,60
;   firstLayerWidthPercentage,100
;   firstLayerUnderspeed,0.5
;   useRaft,0
;   raftExtruder,0
;   raftLayers,3
;   raftOffset,3
;   raftSeparationDistance,0.14
;   raftInfill,85
;   disableRaftBaseLayers,0
;   useSkirt,1
;   skirtExtruder,0
;   skirtLayers,1
;   skirtOutlines,5
;   skirtOffset,4
;   usePrimePillar,0
;   primePillarExtruder,999
;   primePillarWidth,12
;   primePillarLocation,7
;   primePillarSpeedMultiplier,1
;   useOozeShield,0
;   oozeShieldExtruder,999
;   oozeShieldOffset,2
;   oozeShieldOutlines,1
;   oozeShieldSidewallShape,1
;   oozeShieldSidewallAngle,30
;   oozeShieldSpeedMultiplier,1
;   infillExtruder,0
;   internalInfillPattern,Rectilinear
;   externalInfillPattern,Rectilinear
;   infillPercentage,20
;   outlineOverlapPercentage,15
;   infillExtrusionWidthPercentage,100
;   minInfillLength,5
;   infillLayerInterval,1
;   infillAngles,45,-45
;   overlapInfillAngles,0
;   generateSupport,0
;   supportExtruder,0
;   supportInfillPercentage,30
;   supportExtraInflation,0.4
;   denseSupportLayers,0
;   denseSupportInfillPercentage,70
;   supportLayerInterval,1
;   supportHorizontalPartOffset,0.3
;   supportUpperSeparationLayers,1
;   supportLowerSeparationLayers,1
;   supportType,0
;   supportGridSpacing,4
;   maxOverhangAngle,45
;   supportAngles,0
;   temperatureName,Primary Extruder,Heated Bed
;   temperatureNumber,0,1
;   temperatureSetpointCount,3,1
;   temperatureSetpointLayers,1,2,3,1
;   temperatureSetpointTemperatures,210,200,190,50
;   temperatureStabilizeAtStartup,1,1
;   temperatureHeatedBed,0,1
;   temperatureRelayBetweenLayers,0,0
;   temperatureRelayBetweenLoops,0,0
;   fanLayers,1,2
;   fanSpeeds,0,100
;   blipFanToFullPower,1
;   adjustSpeedForCooling,1
;   minSpeedLayerTime,15
;   minCoolingSpeedSlowdown,20
;   increaseFanForCooling,0
;   minFanLayerTime,45
;   maxCoolingFanSpeed,100
;   increaseFanForBridging,0
;   bridgingFanSpeed,100
;   use5D,1
;   relativeEdistances,0
;   allowEaxisZeroing,1
;   independentExtruderAxes,0
;   includeM10123,0
;   stickySupport,1
;   applyToolheadOffsets,0
;   gcodeXoffset,0
;   gcodeYoffset,0
;   gcodeZoffset,0
;   overrideMachineDefinition,1
;   machineTypeOverride,0
;   strokeXoverride,150
;   strokeYoverride,150
;   strokeZoverride,150
;   originOffsetXoverride,0
;   originOffsetYoverride,0
;   originOffsetZoverride,0
;   homeXdirOverride,-1
;   homeYdirOverride,-1
;   homeZdirOverride,-1
;   flipXoverride,1
;   flipYoverride,-1
;   flipZoverride,1
;   toolheadOffsets,0,0|0,0|0,0|0,0|0,0|0,0
;   overrideFirmwareConfiguration,1
;   firmwareTypeOverride,RepRap (Marlin/Repetier/Sprinter)
;   GPXconfigOverride,r2
;   baudRateOverride,250000
;   overridePrinterModels,1
;   printerModelsOverride
;   startingGcode,G28 X0 Y0 ; home X and Y axes,G29 ; probe z
;   layerChangeGcode,
;   retractionGcode,
;   toolChangeGcode,
;   endingGcode,M104 S0 T0 ; turn off extruder,M140 S0 T1 ; turn off bed,G28 X0 Y0 ; home,M84 ; disable motors
;   createX3G,0
;   celebration,0
;   celebrationSong,Random Song
;   createMB5G,0
;   postProcessing,
;   defaultSpeed,2700
;   outlineUnderspeed,0.8
;   solidInfillUnderspeed,0.8
;   supportUnderspeed,0.8
;   rapidXYspeed,4200
;   rapidZspeed,1002
;   minBridgingArea,50
;   bridgingExtraInflation,0
;   bridgingExtrusionMultiplier,1
;   bridgingSpeedMultiplier,1
;   filamentDiameter,1.75
;   filamentPricePerKg,22
;   filamentDensity,1.25
;   useMinPrintHeight,0
;   minPrintHeight,0
;   useMaxPrintHeight,0
;   maxPrintHeight,0
;   useDiaphragm,0
;   diaphragmLayerInterval,20
;   robustSlicing,1
;   mergeAllIntoSolid,0
;   onlyRetractWhenCrossingOutline,1
;   retractBetweenLayers,1
;   useRetractionMinTravel,0
;   retractionMinTravel,3
;   retractWhileWiping,0
;   onlyWipeOutlines,1
;   avoidCrossingOutline,0
;   maxMovementDetourFactor,3
;   toolChangeRetractionDistance,12
;   toolChangeExtraRestartDistance,-0.5
;   toolChangeRetractionSpeed,600
;   allowThinWallGapFill,1
;   thinWallAllowedOverlapPercentage,10
;   horizontalSizeCompensation,0
G90
M82
M106 S0
M140 S50
M190 S50
M104 S210 T0
M109 S210 T0
G28 X0 Y0 ; home X and Y axes
G29 ; probe z
G92 E0
G1 E-1.5000 F1800
G1 Z0.120 F1002
; layer 1, Z = 0.12
T0
; tool H0.200 W0.400
; skirt
G1 X43.566 Y109.632 F4200
G1 E0.0000 F540
G92 E0
G1 X44.282 Y109.303 E0.0315 F1350
G1 X54.665 Y109.303 E0.4459
G1 X55.278 Y109.533 E0.4720
G1 X58.032 Y111.942 E0.6180
G1 X58.341 Y112.518 E0.6441
G1 X58.688 Y115.107 E0.7484
G1 X58.946 Y116.592 E0.8085
G1 X59.081 Y117.227 E0.8344
G1 X59.448 Y118.692 E0.8947
G1 X59.628 Y119.311 E0.9205
G1 X60.105 Y120.748 E0.9809
G1 X60.330 Y121.352 E1.0066
G1 X61.378 Y122.135 E1.0588
G1 X63.663 Y123.645 E1.1681
G1 X66.029 Y125.022 E1.2774
G1 X68.470 Y126.259 E1.3866
G1 X70.979 Y127.358 E1.4959
G1 X73.545 Y128.311 E1.6052
G1 X76.161 Y129.114 E1.7144
G1 X78.820 Y129.769 E1.8237
G1 X81.508 Y130.268 E1.9328
G1 X84.227 Y130.612 E2.0422
G1 X86.944 Y130.802 E2.1509
G1 X91.878 Y130.837 E2.3479
G1 X94.726 Y130.803 E2.4615
G1 X97.457 Y130.612 E2.5708
G1 X100.174 Y130.268 E2.6801
G1 X102.863 Y129.769 E2.7893
G1 X105.524 Y129.114 E2.8986
G1 X108.139 Y128.312 E3.0078
G1 X110.703 Y127.358 E3.1170
G1 X113.215 Y126.259 E3.2264
G1 X115.656 Y125.022 E3.3357
G1 X118.020 Y123.645 E3.4448
G1 X120.304 Y122.136 E3.5541
G1 X121.339 Y121.363 E3.6057
G1 X121.613 Y120.653 E3.6360
G1 X121.823 Y120.045 E3.6617
G1 X122.261 Y118.596 E3.7221
G1 X122.427 Y117.968 E3.7481
G1 X122.756 Y116.498 E3.8082
G1 X122.874 Y115.862 E3.8340
G1 X123.375 Y112.464 E3.9711
G1 X123.687 Y111.896 E3.9969
G1 X126.429 Y109.529 E4.1415
G1 X127.037 Y109.303 E4.1674
G1 X137.400 Y109.303 E4.5810
G1 X138.116 Y109.632 E4.6125
G1 X141.024 Y113.024 E4.7908
G1 X141.240 Y113.782 E4.8223
G1 X140.483 Y118.674 E5.0199
G1 X140.478 Y118.703 E5.0210
G1 X140.449 Y118.857 E5.0273
G1 X140.443 Y118.885 E5.0284
G1 X140.039 Y120.717 E5.1033
G1 X140.034 Y120.736 E5.1041
G1 X140.008 Y120.842 E5.1084
G1 X140.003 Y120.861 E5.1092
G1 X139.754 Y121.791 E5.1476
G1 X139.750 Y121.803 E5.1481
G1 X139.731 Y121.872 E5.1510
G1 X139.727 Y121.884 E5.1515
G1 X139.453 Y122.802 E5.1898
G1 X139.447 Y122.821 E5.1905
G1 X139.415 Y122.919 E5.1946
G1 X139.409 Y122.937 E5.1954
G1 X138.807 Y124.677 E5.2689
G1 X138.798 Y124.702 E5.2699
G1 X138.748 Y124.834 E5.2756
G1 X138.738 Y124.858 E5.2766
G1 X138.028 Y126.583 E5.3511
G1 X138.020 Y126.601 E5.3519
G1 X137.977 Y126.699 E5.3561
G1 X137.969 Y126.717 E5.3569
G1 X137.323 Y128.109 E5.4182
G1 X137.204 Y128.298 E5.4271
G1 X136.434 Y129.245 E5.4758
G1 X136.273 Y129.400 E5.4847
G1 X132.673 Y132.081 E5.6639
G1 X132.652 Y132.096 E5.6649
G1 X132.537 Y132.177 E5.6705
G1 X132.516 Y132.191 E5.6715
G1 X129.220 Y134.364 E5.8291
G1 X129.199 Y134.377 E5.8301
G1 X129.084 Y134.449 E5.8355
G1 X129.062 Y134.462 E5.8365
G1 X125.653 Y136.447 E5.9939
G1 X125.631 Y136.460 E5.9950
G1 X125.510 Y136.526 E6.0005
G1 X125.487 Y136.538 E6.0015
G1 X121.970 Y138.329 E6.1590
G1 X121.947 Y138.340 E6.1600
G1 X121.822 Y138.399 E6.1656
G1 X121.799 Y138.410 E6.1666
G1 X118.186 Y140.000 E6.3241
G1 X118.162 Y140.010 E6.3251
G1 X118.033 Y140.062 E6.3307
G1 X118.010 Y140.071 E6.3317
G1 X114.312 Y141.454 E6.4893
G1 X114.288 Y141.462 E6.4903
G1 X114.158 Y141.507 E6.4958
G1 X114.134 Y141.515 E6.4968
G1 X110.367 Y142.687 E6.6543
G1 X110.342 Y142.695 E6.6553
G1 X110.210 Y142.732 E6.6608
G1 X110.185 Y142.738 E6.6618
G1 X106.357 Y143.698 E6.8193
G1 X106.332 Y143.703 E6.8203
G1 X106.197 Y143.733 E6.8258
G1 X106.172 Y143.738 E6.8269
G1 X102.296 Y144.480 E6.9844
G1 X102.271 Y144.484 E6.9854
G1 X102.136 Y144.506 E6.9908
G1 X102.111 Y144.510 E6.9918
G1 X98.198 Y145.034 E7.1494
G1 X98.173 Y145.037 E7.1504
G1 X98.035 Y145.051 E7.1559
G1 X98.010 Y145.054 E7.1570
G1 X94.077 Y145.355 E7.3144
G1 X94.053 Y145.357 E7.3154
G1 X93.921 Y145.363 E7.3206
G1 X93.897 Y145.364 E7.3216
G1 X91.050 Y145.429 E7.4353
G1 X91.030 Y145.429 E7.4360
G1 X90.924 Y145.429 E7.4403
G1 X90.905 Y145.429 E7.4411
G1 X87.794 Y145.365 E7.5652
G1 X87.769 Y145.364 E7.5662
G1 X87.632 Y145.357 E7.5717
G1 X87.607 Y145.356 E7.5727
G1 X83.672 Y145.054 E7.7302
G1 X83.647 Y145.051 E7.7312
G1 X83.509 Y145.037 E7.7368
G1 X83.483 Y145.034 E7.7378
G1 X79.572 Y144.510 E7.8953
G1 X79.548 Y144.506 E7.8963
G1 X79.412 Y144.484 E7.9018
G1 X79.388 Y144.480 E7.9028
G1 X75.512 Y143.738 E8.0603
G1 X75.487 Y143.733 E8.0613
G1 X75.352 Y143.703 E8.0668
G1 X75.327 Y143.698 E8.0678
G1 X71.499 Y142.738 E8.2253
G1 X71.474 Y142.732 E8.2263
G1 X71.342 Y142.695 E8.2318
G1 X71.317 Y142.687 E8.2328
G1 X67.550 Y141.515 E8.3903
G1 X67.526 Y141.507 E8.3913
G1 X67.396 Y141.462 E8.3968
G1 X67.372 Y141.454 E8.3978
G1 X63.674 Y140.071 E8.5554
G1 X63.651 Y140.062 E8.5564
G1 X63.522 Y140.010 E8.5620
G1 X63.498 Y140.000 E8.5630
G1 X59.885 Y138.410 E8.7205
G1 X59.862 Y138.399 E8.7216
G1 X59.737 Y138.340 E8.7271
G1 X59.714 Y138.329 E8.7281
G1 X56.197 Y136.538 E8.8856
G1 X56.175 Y136.526 E8.8866
G1 X56.054 Y136.460 E8.8921
G1 X56.032 Y136.448 E8.8931
G1 X52.621 Y134.462 E9.0507
G1 X52.599 Y134.449 E9.0517
G1 X52.482 Y134.377 E9.0571
G1 X52.461 Y134.363 E9.0581
G1 X49.168 Y132.191 E9.2156
G1 X49.147 Y132.176 E9.2166
G1 X49.033 Y132.097 E9.2222
G1 X49.012 Y132.082 E9.2232
G1 X45.395 Y129.390 E9.4031
G1 X45.230 Y129.230 E9.4123
G1 X44.443 Y128.248 E9.4626
G1 X44.323 Y128.051 E9.4718
G1 X43.335 Y125.837 E9.5685
G1 X43.327 Y125.819 E9.5693
G1 X43.285 Y125.718 E9.5737
G1 X43.277 Y125.700 E9.5745
G1 X42.926 Y124.808 E9.6127
G1 X42.922 Y124.797 E9.6132
G1 X42.898 Y124.735 E9.6158
G1 X42.894 Y124.724 E9.6163
G1 X42.567 Y123.823 E9.6546
G1 X42.561 Y123.804 E9.6554
G1 X42.525 Y123.700 E9.6598
G1 X42.519 Y123.681 E9.6606
G1 X41.967 Y121.917 E9.7343
G1 X41.962 Y121.899 E9.7351
G1 X41.933 Y121.800 E9.7392
G1 X41.928 Y121.782 E9.7399
G1 X41.676 Y120.839 E9.7789
G1 X41.671 Y120.820 E9.7797
G1 X41.646 Y120.717 E9.7839
G1 X41.641 Y120.698 E9.7847
G1 X41.236 Y118.868 E9.8595
G1 X41.230 Y118.840 E9.8606
G1 X41.201 Y118.684 E9.8670
G1 X41.196 Y118.656 E9.8681
G1 X40.442 Y113.782 E10.0650
G1 X40.658 Y113.024 E10.0964
G1 X43.566 Y109.632 E10.2747
G1 X44.370 Y109.703 F4200
G92 E0
G1 X54.593 Y109.703 E0.4080 F1350
G1 X55.069 Y109.882 E0.4283
G1 X57.714 Y112.195 E0.5686
G1 X57.954 Y112.644 E0.5889
G1 X58.293 Y115.168 E0.6905
G1 X58.553 Y116.667 E0.7513
G1 X58.691 Y117.317 E0.7778
G1 X59.062 Y118.796 E0.8386
G1 X59.246 Y119.430 E0.8650
G1 X59.728 Y120.881 E0.9260
G1 X59.960 Y121.505 E0.9526
G1 X60.002 Y121.607 E0.9570
G1 X61.148 Y122.463 E1.0141
G1 X63.452 Y123.985 E1.1243
G1 X65.837 Y125.373 E1.2344
G1 X68.299 Y126.621 E1.3446
G1 X70.829 Y127.729 E1.4548
G1 X73.416 Y128.690 E1.5650
G1 X76.054 Y129.500 E1.6751
G1 X78.735 Y130.160 E1.7853
G1 X81.446 Y130.663 E1.8954
G1 X84.188 Y131.011 E2.0057
G1 X86.929 Y131.202 E2.1153
G1 X91.879 Y131.237 E2.3129
G1 X94.742 Y131.203 E2.4272
G1 X97.496 Y131.011 E2.5374
G1 X100.236 Y130.663 E2.6476
G1 X102.948 Y130.160 E2.7577
G1 X105.630 Y129.500 E2.8679
G1 X108.268 Y128.691 E2.9781
G1 X110.853 Y127.729 E3.0882
G1 X113.385 Y126.621 E3.1985
G1 X115.847 Y125.373 E3.3086
G1 X118.231 Y123.985 E3.4187
G1 X120.534 Y122.463 E3.5289
G1 X121.670 Y121.615 E3.5855
G1 X121.989 Y120.790 E3.6208
G1 X122.203 Y120.168 E3.6471
G1 X122.646 Y118.705 E3.7080
G1 X122.815 Y118.063 E3.7346
G1 X123.148 Y116.578 E3.7953
G1 X123.268 Y115.928 E3.8217
G1 X123.760 Y112.594 E3.9562
G1 X124.003 Y112.152 E3.9763
G1 X126.636 Y109.878 E4.1152
G1 X127.109 Y109.703 E4.1353
G1 X137.313 Y109.703 E4.5426
G1 X137.870 Y109.959 E4.5670
G1 X140.663 Y113.218 E4.7383
G1 X140.831 Y113.808 E4.7628
G1 X140.088 Y118.610 E4.9568
G1 X140.084 Y118.632 E4.9577
G1 X140.056 Y118.780 E4.9637
G1 X140.052 Y118.802 E4.9646
G1 X139.648 Y120.628 E5.0392
G1 X139.645 Y120.643 E5.0398
G1 X139.620 Y120.745 E5.0440
G1 X139.616 Y120.760 E5.0446
G1 X139.368 Y121.686 E5.0829
G1 X139.365 Y121.696 E5.0833
G1 X139.347 Y121.761 E5.0860
G1 X139.344 Y121.771 E5.0864
G1 X139.070 Y122.686 E5.1245
G1 X139.066 Y122.700 E5.1251
G1 X139.035 Y122.794 E5.1291
G1 X139.030 Y122.808 E5.1297
G1 X138.430 Y124.543 E5.2030
G1 X138.423 Y124.563 E5.2038
G1 X138.375 Y124.690 E5.2092
G1 X138.368 Y124.709 E5.2100
G1 X137.659 Y126.429 E5.2843
G1 X137.653 Y126.443 E5.2849
G1 X137.611 Y126.537 E5.2890
G1 X137.605 Y126.551 E5.2896
G1 X136.970 Y127.918 E5.3497
G1 X136.878 Y128.065 E5.3567
G1 X136.140 Y128.974 E5.4034
G1 X136.014 Y129.094 E5.4103
G1 X132.436 Y131.759 E5.5884
G1 X132.420 Y131.770 E5.5892
G1 X132.310 Y131.848 E5.5946
G1 X132.293 Y131.859 E5.5954
G1 X129.002 Y134.028 E5.7527
G1 X128.986 Y134.039 E5.7535
G1 X128.875 Y134.108 E5.7587
G1 X128.859 Y134.118 E5.7594
G1 X125.455 Y136.100 E5.9167
G1 X125.437 Y136.110 E5.9175
G1 X125.321 Y136.173 E5.9227
G1 X125.303 Y136.183 E5.9235
G1 X121.791 Y137.971 E6.0809
G1 X121.773 Y137.980 E6.0816
G1 X121.653 Y138.037 E6.0869
G1 X121.635 Y138.045 E6.0877
G1 X118.027 Y139.633 E6.2451
G1 X118.009 Y139.640 E6.2458
G1 X117.885 Y139.691 E6.2512
G1 X117.867 Y139.698 E6.2520
G1 X114.174 Y141.078 E6.4093
G1 X114.156 Y141.085 E6.4101
G1 X114.031 Y141.127 E6.4153
G1 X114.013 Y141.134 E6.4161
G1 X110.250 Y142.305 E6.5734
G1 X110.232 Y142.310 E6.5742
G1 X110.104 Y142.346 E6.5795
G1 X110.085 Y142.351 E6.5802
G1 X106.262 Y143.309 E6.7375
G1 X106.243 Y143.313 E6.7383
G1 X106.114 Y143.342 E6.7436
G1 X106.094 Y143.346 E6.7444
G1 X102.224 Y144.087 E6.9017
G1 X102.204 Y144.090 E6.9025
G1 X102.075 Y144.111 E6.9077
G1 X102.055 Y144.114 E6.9085
G1 X98.148 Y144.637 E7.0658
G1 X98.128 Y144.639 E7.0666
G1 X97.996 Y144.653 E7.0719
G1 X97.977 Y144.655 E7.0727
G1 X94.049 Y144.956 E7.2299
G1 X94.030 Y144.958 E7.2307
G1 X93.904 Y144.964 E7.2357
G1 X93.885 Y144.964 E7.2365
G1 X91.043 Y145.029 E7.3500
G1 X91.028 Y145.029 E7.3506
G1 X90.926 Y145.029 E7.3546
G1 X90.911 Y145.029 E7.3552
G1 X87.806 Y144.965 E7.4792
G1 X87.786 Y144.964 E7.4800
G1 X87.655 Y144.958 E7.4852
G1 X87.635 Y144.957 E7.4860
G1 X83.705 Y144.655 E7.6433
G1 X83.686 Y144.653 E7.6441
G1 X83.553 Y144.639 E7.6494
G1 X83.534 Y144.637 E7.6502
G1 X79.628 Y144.114 E7.8075
G1 X79.609 Y144.111 E7.8082
G1 X79.479 Y144.090 E7.8135
G1 X79.460 Y144.087 E7.8143
G1 X75.590 Y143.346 E7.9715
G1 X75.570 Y143.342 E7.9723
G1 X75.441 Y143.313 E7.9776
G1 X75.422 Y143.309 E7.9784
G1 X71.599 Y142.351 E8.1357
G1 X71.580 Y142.346 E8.1365
G1 X71.453 Y142.310 E8.1418
G1 X71.434 Y142.305 E8.1426
G1 X67.671 Y141.134 E8.2998
G1 X67.653 Y141.127 E8.3006
G1 X67.528 Y141.085 E8.3059
G1 X67.510 Y141.078 E8.3066
G1 X63.817 Y139.698 E8.4640
G1 X63.799 Y139.691 E8.4648
G1 X63.675 Y139.640 E8.4701
G1 X63.657 Y139.633 E8.4709
G1 X60.049 Y138.045 E8.6282
G1 X60.031 Y138.037 E8.6290
G1 X59.911 Y137.980 E8.6343
G1 X59.893 Y137.971 E8.6351
G1 X56.381 Y136.183 E8.7924
G1 X56.363 Y136.173 E8.7932
G1 X56.248 Y136.110 E8.7985
G1 X56.230 Y136.101 E8.7992
G1 X52.824 Y134.118 E8.9565
G1 X52.807 Y134.108 E8.9573
G1 X52.696 Y134.038 E8.9626
G1 X52.679 Y134.028 E8.9634
G1 X49.390 Y131.858 E9.1206
G1 X49.374 Y131.847 E9.1214
G1 X49.265 Y131.771 E9.1267
G1 X49.249 Y131.759 E9.1275
