; G-Code generated by Simplify3D(R) Version 3.0.2
; Oct 3, 2015 at 8:45:38 AM
; Settings Summary
;   processName,Process1
;   applyToModels,twistFlatHandle,twistFlatHandle(2)
;   profileName,PrinterBot Simple Metal Custom (modified)
;   profileVersion,2015-05-01 08:00:00
;   baseProfile,Default (modified)
;   printMaterial,SS PLA
;   printQuality,Medium
;   printExtruders,
;   extruderName,Primary Extruder
;   extruderToolheadNumber,0
;   extruderDiameter,0.4
;   extruderAutoWidth,0
;   extruderWidth,0.4
;   extrusionMultiplier,1.2
;   extruderUseRetract,1
;   extruderRetractionDistance,1.5
;   extruderExtraRestartDistance,0
;   extruderRetractionZLift,0
;   extruderRetractionSpeed,1800
;   extruderUseCoasting,0
;   extruderCoastingDistance,0.2
;   extruderUseWipe,0
;   extruderWipeDistance,5
;   primaryExtruder,0
;   layerHeight,0.2
;   topSolidLayers,3
;   bottomSolidLayers,3
;   perimeterOutlines,2
;   printPerimetersInsideOut,1
;   startPointOption,2
;   startPointOriginX,0
;   startPointOriginY,0
;   startPointOriginZ,300
;   sequentialIslands,0
;   spiralVaseMode,0
;   firstLayerHeightPercentage,70
;   firstLayerWidthPercentage,100
;   firstLayerUnderspeed,0.5
;   useRaft,0
;   raftExtruder,0
;   raftLayers,3
;   raftOffset,3
;   raftSeparationDistance,0.14
;   raftInfill,85
;   disableRaftBaseLayers,0
;   useSkirt,1
;   skirtExtruder,0
;   skirtLayers,1
;   skirtOutlines,3
;   skirtOffset,4
;   usePrimePillar,0
;   primePillarExtruder,999
;   primePillarWidth,12
;   primePillarLocation,7
;   primePillarSpeedMultiplier,1
;   useOozeShield,0
;   oozeShieldExtruder,999
;   oozeShieldOffset,2
;   oozeShieldOutlines,1
;   oozeShieldSidewallShape,1
;   oozeShieldSidewallAngle,30
;   oozeShieldSpeedMultiplier,1
;   infillExtruder,0
;   internalInfillPattern,Rectilinear
;   externalInfillPattern,Rectilinear
;   infillPercentage,20
;   outlineOverlapPercentage,15
;   infillExtrusionWidthPercentage,100
;   minInfillLength,5
;   infillLayerInterval,1
;   infillAngles,45,-45
;   overlapInfillAngles,0
;   generateSupport,0
;   supportExtruder,0
;   supportInfillPercentage,30
;   supportExtraInflation,0.4
;   denseSupportLayers,0
;   denseSupportInfillPercentage,70
;   supportLayerInterval,1
;   supportHorizontalPartOffset,0.3
;   supportUpperSeparationLayers,1
;   supportLowerSeparationLayers,1
;   supportType,0
;   supportGridSpacing,4
;   maxOverhangAngle,45
;   supportAngles,0
;   temperatureName,Primary Extruder,Heated Bed
;   temperatureNumber,0,1
;   temperatureSetpointCount,3,1
;   temperatureSetpointLayers,1,2,3,1
;   temperatureSetpointTemperatures,210,200,190,50
;   temperatureStabilizeAtStartup,1,1
;   temperatureHeatedBed,0,1
;   temperatureRelayBetweenLayers,0,0
;   temperatureRelayBetweenLoops,0,0
;   fanLayers,1,2
;   fanSpeeds,0,100
;   blipFanToFullPower,1
;   adjustSpeedForCooling,1
;   minSpeedLayerTime,15
;   minCoolingSpeedSlowdown,20
;   increaseFanForCooling,0
;   minFanLayerTime,45
;   maxCoolingFanSpeed,100
;   increaseFanForBridging,0
;   bridgingFanSpeed,100
;   use5D,1
;   relativeEdistances,0
;   allowEaxisZeroing,1
;   independentExtruderAxes,0
;   includeM10123,0
;   stickySupport,1
;   applyToolheadOffsets,0
;   gcodeXoffset,0
;   gcodeYoffset,0
;   gcodeZoffset,0
;   overrideMachineDefinition,1
;   machineTypeOverride,0
;   strokeXoverride,150
;   strokeYoverride,150
;   strokeZoverride,150
;   originOffsetXoverride,0
;   originOffsetYoverride,0
;   originOffsetZoverride,0
;   homeXdirOverride,-1
;   homeYdirOverride,-1
;   homeZdirOverride,-1
;   flipXoverride,1
;   flipYoverride,-1
;   flipZoverride,1
;   toolheadOffsets,0,0|0,0|0,0|0,0|0,0|0,0
;   overrideFirmwareConfiguration,1
;   firmwareTypeOverride,RepRap (Marlin/Repetier/Sprinter)
;   GPXconfigOverride,r2
;   baudRateOverride,250000
;   overridePrinterModels,1
;   printerModelsOverride
;   startingGcode,G28 X0 Y0 ; home X and Y axes,G29 ; probe z
;   layerChangeGcode,
;   retractionGcode,
;   toolChangeGcode,
;   endingGcode,M104 S0 T0 ; turn off extruder,M140 S0 T1 ; turn off bed,G28 X0 Y0 ; home,M84 ; disable motors
;   createX3G,0
;   celebration,0
;   celebrationSong,Random Song
;   createMB5G,0
;   postProcessing,
;   defaultSpeed,2400
;   outlineUnderspeed,0.8
;   solidInfillUnderspeed,0.8
;   supportUnderspeed,0.8
;   rapidXYspeed,4200
;   rapidZspeed,1002
;   minBridgingArea,50
;   bridgingExtraInflation,0
;   bridgingExtrusionMultiplier,1
;   bridgingSpeedMultiplier,1
;   filamentDiameter,1.75
;   filamentPricePerKg,22
;   filamentDensity,1.25
;   useMinPrintHeight,0
;   minPrintHeight,0
;   useMaxPrintHeight,0
;   maxPrintHeight,0
;   useDiaphragm,0
;   diaphragmLayerInterval,20
;   robustSlicing,1
;   mergeAllIntoSolid,0
;   onlyRetractWhenCrossingOutline,1
;   retractBetweenLayers,1
;   useRetractionMinTravel,0
;   retractionMinTravel,3
;   retractWhileWiping,0
;   onlyWipeOutlines,1
;   avoidCrossingOutline,0
;   maxMovementDetourFactor,3
;   toolChangeRetractionDistance,12
;   toolChangeExtraRestartDistance,-0.5
;   toolChangeRetractionSpeed,600
;   allowThinWallGapFill,1
;   thinWallAllowedOverlapPercentage,10
;   horizontalSizeCompensation,0
G90
M82
M106 S0
M140 S50
M190 S50
M104 S210 T0
M109 S210 T0
G28 X0 Y0 ; home X and Y axes
G29 ; probe z
G92 E0
G1 E-1.5000 F1800
G1 Z0.140 F1002
; layer 1, Z = 0.14
T0
; tool H0.200 W0.400
; skirt
G1 X7.904 Y5.507 F4200
G1 E0.0000 F540
G92 E0
G1 X10.583 Y2.382 E0.1643 F1200
G1 X10.981 Y2.199 E0.1818
G1 X21.059 Y2.199 E0.5840
G1 X21.399 Y2.327 E0.5985
G1 X23.934 Y4.545 E0.7329
G1 X24.106 Y4.865 E0.7474
G1 X24.437 Y7.330 E0.8467
G1 X24.700 Y8.843 E0.9080
G1 X24.841 Y9.508 E0.9351
G1 X25.216 Y11.001 E0.9966
G1 X25.404 Y11.649 E1.0235
G1 X25.891 Y13.114 E1.0851
G1 X26.128 Y13.752 E1.1123
G1 X26.213 Y13.958 E1.1212
G1 X27.457 Y14.887 E1.1831
G1 X29.780 Y16.421 E1.2943
G1 X32.185 Y17.821 E1.4053
G1 X34.667 Y19.079 E1.5164
G1 X37.218 Y20.196 E1.6275
G1 X39.826 Y21.166 E1.7386
G1 X42.487 Y21.982 E1.8497
G1 X45.189 Y22.648 E1.9608
G1 X47.924 Y23.155 E2.0718
G1 X50.687 Y23.505 E2.1829
G1 X53.452 Y23.698 E2.2936
G1 X58.406 Y23.733 E2.4913
G1 X61.284 Y23.699 E2.6062
G1 X64.061 Y23.505 E2.7173
G1 X66.823 Y23.155 E2.8284
G1 X69.557 Y22.647 E2.9394
G1 X72.262 Y21.982 E3.0506
G1 X74.922 Y21.166 E3.1616
G1 X77.529 Y20.196 E3.2726
G1 X80.082 Y19.079 E3.3838
G1 X82.564 Y17.821 E3.4949
G1 X84.967 Y16.421 E3.6059
G1 X87.290 Y14.887 E3.7170
G1 X88.528 Y13.963 E3.7787
G1 X88.890 Y13.024 E3.8188
G1 X89.109 Y12.387 E3.8457
G1 X89.556 Y10.911 E3.9073
G1 X89.730 Y10.253 E3.9344
G1 X90.066 Y8.755 E3.9957
G1 X90.188 Y8.090 E4.0227
G1 X90.671 Y4.820 E4.1546
G1 X90.844 Y4.504 E4.1690
G1 X93.369 Y2.325 E4.3021
G1 X93.706 Y2.199 E4.3165
G1 X103.766 Y2.199 E4.7180
G1 X104.163 Y2.382 E4.7355
G1 X106.843 Y5.508 E4.8998
G1 X106.963 Y5.929 E4.9172
G1 X106.234 Y10.645 E5.1077
G1 X106.231 Y10.661 E5.1084
G1 X106.204 Y10.802 E5.1141
G1 X106.201 Y10.818 E5.1147
G1 X105.799 Y12.639 E5.1892
G1 X105.796 Y12.650 E5.1896
G1 X105.772 Y12.747 E5.1936
G1 X105.770 Y12.758 E5.1941
G1 X105.522 Y13.681 E5.2322
G1 X105.520 Y13.688 E5.2325
G1 X105.503 Y13.750 E5.2351
G1 X105.501 Y13.757 E5.2354
G1 X105.228 Y14.669 E5.2733
G1 X105.225 Y14.679 E5.2738
G1 X105.195 Y14.769 E5.2776
G1 X105.192 Y14.779 E5.2780
G1 X104.595 Y16.506 E5.3509
G1 X104.590 Y16.520 E5.3515
G1 X104.544 Y16.641 E5.3567
G1 X104.539 Y16.655 E5.3572
G1 X103.832 Y18.370 E5.4313
G1 X103.828 Y18.380 E5.4317
G1 X103.788 Y18.470 E5.4356
G1 X103.784 Y18.479 E5.4361
G1 X103.161 Y19.822 E5.4951
G1 X103.095 Y19.928 E5.5001
G1 X102.387 Y20.798 E5.5449
G1 X102.298 Y20.884 E5.5498
G1 X98.741 Y23.533 E5.7268
G1 X98.730 Y23.541 E5.7274
G1 X98.624 Y23.615 E5.7325
G1 X98.612 Y23.623 E5.7331
G1 X95.326 Y25.790 E5.8902
G1 X95.314 Y25.797 E5.8908
G1 X95.208 Y25.863 E5.8957
G1 X95.196 Y25.870 E5.8963
G1 X91.797 Y27.850 E6.0533
G1 X91.784 Y27.857 E6.0539
G1 X91.673 Y27.918 E6.0589
G1 X91.660 Y27.924 E6.0595
G1 X88.152 Y29.710 E6.2166
G1 X88.140 Y29.716 E6.2172
G1 X88.025 Y29.771 E6.2222
G1 X88.012 Y29.777 E6.2228
G1 X84.409 Y31.362 E6.3799
G1 X84.396 Y31.368 E6.3805
G1 X84.277 Y31.416 E6.3856
G1 X84.264 Y31.421 E6.3862
G1 X80.577 Y32.799 E6.5433
G1 X80.563 Y32.804 E6.5439
G1 X80.444 Y32.845 E6.5489
G1 X80.431 Y32.849 E6.5494
G1 X76.674 Y34.019 E6.7065
G1 X76.660 Y34.023 E6.7071
G1 X76.538 Y34.057 E6.7121
G1 X76.525 Y34.060 E6.7127
G1 X72.707 Y35.017 E6.8698
G1 X72.693 Y35.020 E6.8703
G1 X72.569 Y35.048 E6.8754
G1 X72.555 Y35.050 E6.8760
G1 X68.690 Y35.790 E7.0330
G1 X68.676 Y35.792 E7.0336
G1 X68.552 Y35.812 E7.0386
G1 X68.538 Y35.815 E7.0392
G1 X64.636 Y36.337 E7.1963
G1 X64.622 Y36.338 E7.1969
G1 X64.496 Y36.352 E7.2019
G1 X64.481 Y36.353 E7.2025
G1 X60.559 Y36.654 E7.3595
G1 X60.546 Y36.655 E7.3601
G1 X60.425 Y36.661 E7.3649
G1 X60.411 Y36.661 E7.3654
G1 X57.590 Y36.725 E7.4780
G1 X57.579 Y36.725 E7.4785
G1 X57.482 Y36.725 E7.4823
G1 X57.472 Y36.725 E7.4828
G1 X54.344 Y36.661 E7.6076
G1 X54.330 Y36.661 E7.6082
G1 X54.204 Y36.655 E7.6132
G1 X54.190 Y36.654 E7.6138
G1 X50.265 Y36.353 E7.7709
G1 X50.251 Y36.352 E7.7715
G1 X50.124 Y36.338 E7.7766
G1 X50.110 Y36.337 E7.7771
G1 X46.210 Y35.815 E7.9342
G1 X46.196 Y35.812 E7.9347
G1 X46.072 Y35.792 E7.9398
G1 X46.058 Y35.790 E7.9403
G1 X42.193 Y35.050 E8.0974
G1 X42.179 Y35.048 E8.0979
G1 X42.055 Y35.020 E8.1030
G1 X42.041 Y35.017 E8.1036
G1 X38.224 Y34.060 E8.2607
G1 X38.210 Y34.057 E8.2612
G1 X38.088 Y34.023 E8.2663
G1 X38.075 Y34.019 E8.2668
G1 X34.317 Y32.849 E8.4239
G1 X34.304 Y32.845 E8.4244
G1 X34.185 Y32.804 E8.4295
G1 X34.172 Y32.799 E8.4300
G1 X30.484 Y31.421 E8.5872
G1 X30.471 Y31.416 E8.5877
G1 X30.352 Y31.368 E8.5928
G1 X30.339 Y31.362 E8.5934
G1 X26.736 Y29.777 E8.7505
G1 X26.723 Y29.771 E8.7511
G1 X26.608 Y29.716 E8.7562
G1 X26.596 Y29.710 E8.7567
G1 X23.088 Y27.924 E8.9138
G1 X23.076 Y27.918 E8.9144
G1 X22.965 Y27.857 E8.9194
G1 X22.953 Y27.850 E8.9200
G1 X19.551 Y25.870 E9.0771
G1 X19.539 Y25.863 E9.0776
G1 X19.432 Y25.797 E9.0827
G1 X19.420 Y25.789 E9.0832
G1 X16.135 Y23.623 E9.2403
G1 X16.123 Y23.615 E9.2408
G1 X16.019 Y23.541 E9.2459
G1 X16.008 Y23.533 E9.2465
G1 X12.436 Y20.875 E9.4242
G1 X12.344 Y20.786 E9.4293
G1 X11.621 Y19.883 E9.4755
G1 X11.554 Y19.774 E9.4806
G1 X10.589 Y17.611 E9.5751
G1 X10.585 Y17.601 E9.5755
G1 X10.546 Y17.508 E9.5795
G1 X10.542 Y17.498 E9.5800
G1 X10.194 Y16.613 E9.6179
G1 X10.191 Y16.607 E9.6182
G1 X10.170 Y16.550 E9.6206
G1 X10.168 Y16.544 E9.6209
G1 X9.843 Y15.650 E9.6588
G1 X9.839 Y15.639 E9.6593
G1 X9.807 Y15.544 E9.6633
G1 X9.804 Y15.533 E9.6638
G1 X9.255 Y13.778 E9.7372
G1 X9.252 Y13.768 E9.7376
G1 X9.225 Y13.677 E9.7414
G1 X9.223 Y13.667 E9.7418
G1 X8.973 Y12.732 E9.7804
G1 X8.970 Y12.722 E9.7808
G1 X8.947 Y12.627 E9.7847
G1 X8.944 Y12.616 E9.7852
G1 X8.542 Y10.797 E9.8595
G1 X8.539 Y10.782 E9.8602
G1 X8.512 Y10.639 E9.8660
G1 X8.509 Y10.623 E9.8666
G1 X7.784 Y5.928 E10.0562
G1 X7.904 Y5.507 E10.0737
G1 X10.981 Y31.733 F4200
G92 E0
G1 X21.059 Y31.733 E0.4022 F1200
G1 X21.399 Y31.861 E0.4167
G1 X23.934 Y34.079 E0.5512
G1 X24.106 Y34.399 E0.5657
G1 X24.437 Y36.864 E0.6649
G1 X24.700 Y38.377 E0.7263
G1 X24.841 Y39.042 E0.7534
G1 X25.216 Y40.535 E0.8148
G1 X25.404 Y41.183 E0.8418
G1 X25.891 Y42.648 E0.9034
G1 X26.128 Y43.286 E0.9305
G1 X26.213 Y43.492 E0.9394
G1 X27.457 Y44.421 E1.0014
G1 X29.780 Y45.955 E1.1125
G1 X32.185 Y47.355 E1.2235
G1 X34.667 Y48.613 E1.3346
G1 X37.217 Y49.730 E1.4457
G1 X39.826 Y50.700 E1.5568
G1 X42.487 Y51.516 E1.6679
G1 X45.189 Y52.181 E1.7790
G1 X47.924 Y52.689 E1.8900
G1 X50.687 Y53.039 E2.0012
G1 X53.452 Y53.232 E2.1118
G1 X58.406 Y53.267 E2.3095
G1 X61.284 Y53.233 E2.4244
G1 X64.061 Y53.039 E2.5355
G1 X66.823 Y52.689 E2.6466
G1 X69.557 Y52.181 E2.7576
G1 X72.262 Y51.516 E2.8688
G1 X74.922 Y50.700 E2.9798
G1 X77.529 Y49.730 E3.0908
G1 X80.082 Y48.613 E3.2021
G1 X82.564 Y47.355 E3.3131
G1 X84.967 Y45.956 E3.4241
G1 X87.290 Y44.421 E3.5352
G1 X88.528 Y43.497 E3.5969
G1 X88.890 Y42.558 E3.6370
G1 X89.109 Y41.921 E3.6639
G1 X89.556 Y40.445 E3.7255
G1 X89.730 Y39.788 E3.7526
G1 X90.066 Y38.289 E3.8139
G1 X90.188 Y37.624 E3.8409
G1 X90.671 Y34.354 E3.9728
G1 X90.844 Y34.038 E3.9872
G1 X93.369 Y31.859 E4.1203
G1 X93.706 Y31.733 E4.1347
G1 X103.765 Y31.733 E4.5362
G1 X104.163 Y31.916 E4.5537
G1 X106.843 Y35.042 E4.7180
G1 X106.963 Y35.463 E4.7355
G1 X106.234 Y40.179 E4.9259
G1 X106.231 Y40.195 E4.9266
G1 X106.204 Y40.336 E4.9323
G1 X106.201 Y40.352 E4.9330
G1 X105.799 Y42.173 E5.0074
G1 X105.796 Y42.184 E5.0078
G1 X105.772 Y42.281 E5.0118
G1 X105.770 Y42.292 E5.0123
G1 X105.522 Y43.215 E5.0504
G1 X105.520 Y43.222 E5.0507
G1 X105.503 Y43.284 E5.0533
G1 X105.501 Y43.291 E5.0536
G1 X105.228 Y44.203 E5.0916
G1 X105.225 Y44.213 E5.0920
G1 X105.195 Y44.303 E5.0958
G1 X105.192 Y44.313 E5.0962
G1 X104.595 Y46.040 E5.1691
G1 X104.590 Y46.054 E5.1697
G1 X104.544 Y46.175 E5.1749
G1 X104.539 Y46.189 E5.1755
G1 X103.832 Y47.904 E5.2495
G1 X103.828 Y47.914 E5.2499
G1 X103.788 Y48.003 E5.2538
G1 X103.784 Y48.013 E5.2543
G1 X103.161 Y49.356 E5.3134
G1 X103.095 Y49.462 E5.3183
G1 X102.387 Y50.332 E5.3631
G1 X102.298 Y50.418 E5.3681
G1 X98.741 Y53.067 E5.5450
G1 X98.730 Y53.075 E5.5456
G1 X98.624 Y53.149 E5.5507
G1 X98.612 Y53.157 E5.5513
G1 X95.326 Y55.324 E5.7084
G1 X95.314 Y55.331 E5.7090
G1 X95.208 Y55.397 E5.7140
G1 X95.196 Y55.404 E5.7145
G1 X91.797 Y57.384 E5.8715
G1 X91.784 Y57.391 E5.8721
G1 X91.673 Y57.452 E5.8772
G1 X91.660 Y57.458 E5.8777
G1 X88.152 Y59.244 E6.0348
G1 X88.140 Y59.250 E6.0354
G1 X88.025 Y59.305 E6.0405
G1 X88.012 Y59.311 E6.0410
G1 X84.409 Y60.896 E6.1982
G1 X84.396 Y60.902 E6.1987
G1 X84.277 Y60.950 E6.2038
G1 X84.264 Y60.955 E6.2044
G1 X80.577 Y62.333 E6.3615
G1 X80.563 Y62.338 E6.3621
G1 X80.444 Y62.379 E6.3671
G1 X80.431 Y62.383 E6.3677
G1 X76.674 Y63.553 E6.5247
G1 X76.660 Y63.557 E6.5253
G1 X76.538 Y63.591 E6.5303
G1 X76.525 Y63.594 E6.5309
G1 X72.707 Y64.551 E6.6880
G1 X72.693 Y64.554 E6.6885
G1 X72.569 Y64.582 E6.6936
G1 X72.555 Y64.584 E6.6942
G1 X68.690 Y65.324 E6.8512
G1 X68.676 Y65.326 E6.8518
G1 X68.552 Y65.347 E6.8568
G1 X68.538 Y65.349 E6.8574
G1 X64.636 Y65.871 E7.0145
G1 X64.622 Y65.872 E7.0151
G1 X64.496 Y65.886 E7.0202
G1 X64.481 Y65.887 E7.0207
G1 X60.559 Y66.188 E7.1777
G1 X60.546 Y66.189 E7.1783
G1 X60.425 Y66.195 E7.1831
G1 X60.411 Y66.195 E7.1836
G1 X57.590 Y66.259 E7.2963
G1 X57.579 Y66.259 E7.2967
G1 X57.482 Y66.259 E7.3006
G1 X57.472 Y66.259 E7.3010
G1 X54.344 Y66.195 E7.4258
G1 X54.330 Y66.195 E7.4264
G1 X54.204 Y66.189 E7.4314
G1 X54.190 Y66.188 E7.4320
G1 X50.265 Y65.887 E7.5891
G1 X50.251 Y65.886 E7.5897
G1 X50.124 Y65.872 E7.5948
G1 X50.110 Y65.871 E7.5953
G1 X46.210 Y65.349 E7.7524
G1 X46.196 Y65.346 E7.7529
G1 X46.072 Y65.326 E7.7580
G1 X46.058 Y65.324 E7.7585
G1 X42.193 Y64.584 E7.9156
G1 X42.179 Y64.582 E7.9162
G1 X42.055 Y64.554 E7.9212
G1 X42.041 Y64.551 E7.9218
G1 X38.224 Y63.595 E8.0789
G1 X38.210 Y63.591 E8.0794
G1 X38.088 Y63.557 E8.0845
G1 X38.075 Y63.553 E8.0850
G1 X34.317 Y62.383 E8.2421
G1 X34.304 Y62.379 E8.2427
G1 X34.185 Y62.338 E8.2477
G1 X34.172 Y62.333 E8.2483
G1 X30.484 Y60.955 E8.4054
G1 X30.471 Y60.950 E8.4059
G1 X30.352 Y60.902 E8.4110
G1 X30.339 Y60.896 E8.4116
G1 X26.736 Y59.311 E8.5687
G1 X26.723 Y59.305 E8.5693
G1 X26.608 Y59.250 E8.5744
G1 X26.596 Y59.244 E8.5749
G1 X23.088 Y57.458 E8.7320
G1 X23.076 Y57.452 E8.7326
G1 X22.965 Y57.391 E8.7376
G1 X22.953 Y57.384 E8.7382
G1 X19.551 Y55.404 E8.8953
G1 X19.539 Y55.397 E8.8958
G1 X19.432 Y55.331 E8.9009
G1 X19.420 Y55.323 E8.9014
G1 X16.135 Y53.157 E9.0585
G1 X16.124 Y53.149 E9.0590
G1 X16.019 Y53.075 E9.0641
G1 X16.008 Y53.067 E9.0647
G1 X12.436 Y50.409 E9.2424
G1 X12.344 Y50.320 E9.2475
G1 X11.621 Y49.417 E9.2937
G1 X11.554 Y49.308 E9.2988
G1 X10.589 Y47.145 E9.3933
G1 X10.585 Y47.135 E9.3938
G1 X10.546 Y47.042 E9.3978
G1 X10.542 Y47.032 E9.3982
G1 X10.194 Y46.147 E9.4362
G1 X10.191 Y46.141 E9.4364
G1 X10.170 Y46.084 E9.4388
G1 X10.168 Y46.078 E9.4391
G1 X9.843 Y45.184 E9.4771
G1 X9.839 Y45.173 E9.4775
G1 X9.807 Y45.078 E9.4815
G1 X9.804 Y45.067 E9.4820
G1 X9.255 Y43.312 E9.5554
G1 X9.252 Y43.302 E9.5558
