; G-Code generated by Simplify3D(R) Version 3.0.2
; Oct 2, 2015 at 2:12:27 PM
; Settings Summary
;   processName,Process1
;   applyToModels,twistFlatHandle,twistFlatHandle(2),twistFlatHandle(3),twistFlatHandle(4)
;   profileName,PrinterBot Simple Metal Custom (modified)
;   profileVersion,2015-05-01 08:00:00
;   baseProfile,Default (modified)
;   printMaterial,SS PLA
;   printQuality,Medium
;   printExtruders,
;   extruderName,Primary Extruder
;   extruderToolheadNumber,0
;   extruderDiameter,0.4
;   extruderAutoWidth,0
;   extruderWidth,0.4
;   extrusionMultiplier,1.2
;   extruderUseRetract,1
;   extruderRetractionDistance,1.5
;   extruderExtraRestartDistance,0
;   extruderRetractionZLift,0
;   extruderRetractionSpeed,1800
;   extruderUseCoasting,0
;   extruderCoastingDistance,0.2
;   extruderUseWipe,0
;   extruderWipeDistance,5
;   primaryExtruder,0
;   layerHeight,0.2
;   topSolidLayers,3
;   bottomSolidLayers,3
;   perimeterOutlines,2
;   printPerimetersInsideOut,1
;   startPointOption,2
;   startPointOriginX,0
;   startPointOriginY,0
;   startPointOriginZ,300
;   sequentialIslands,0
;   spiralVaseMode,0
;   firstLayerHeightPercentage,70
;   firstLayerWidthPercentage,100
;   firstLayerUnderspeed,0.5
;   useRaft,0
;   raftExtruder,0
;   raftLayers,3
;   raftOffset,3
;   raftSeparationDistance,0.14
;   raftInfill,85
;   disableRaftBaseLayers,0
;   useSkirt,1
;   skirtExtruder,0
;   skirtLayers,1
;   skirtOutlines,5
;   skirtOffset,4
;   usePrimePillar,0
;   primePillarExtruder,999
;   primePillarWidth,12
;   primePillarLocation,7
;   primePillarSpeedMultiplier,1
;   useOozeShield,0
;   oozeShieldExtruder,999
;   oozeShieldOffset,2
;   oozeShieldOutlines,1
;   oozeShieldSidewallShape,1
;   oozeShieldSidewallAngle,30
;   oozeShieldSpeedMultiplier,1
;   infillExtruder,0
;   internalInfillPattern,Rectilinear
;   externalInfillPattern,Rectilinear
;   infillPercentage,20
;   outlineOverlapPercentage,15
;   infillExtrusionWidthPercentage,100
;   minInfillLength,5
;   infillLayerInterval,1
;   infillAngles,45,-45
;   overlapInfillAngles,0
;   generateSupport,0
;   supportExtruder,0
;   supportInfillPercentage,30
;   supportExtraInflation,0.4
;   denseSupportLayers,0
;   denseSupportInfillPercentage,70
;   supportLayerInterval,1
;   supportHorizontalPartOffset,0.3
;   supportUpperSeparationLayers,1
;   supportLowerSeparationLayers,1
;   supportType,0
;   supportGridSpacing,4
;   maxOverhangAngle,45
;   supportAngles,0
;   temperatureName,Primary Extruder,Heated Bed
;   temperatureNumber,0,1
;   temperatureSetpointCount,3,1
;   temperatureSetpointLayers,1,2,3,1
;   temperatureSetpointTemperatures,210,200,190,50
;   temperatureStabilizeAtStartup,1,1
;   temperatureHeatedBed,0,1
;   temperatureRelayBetweenLayers,0,0
;   temperatureRelayBetweenLoops,0,0
;   fanLayers,1,2
;   fanSpeeds,0,100
;   blipFanToFullPower,1
;   adjustSpeedForCooling,1
;   minSpeedLayerTime,15
;   minCoolingSpeedSlowdown,20
;   increaseFanForCooling,0
;   minFanLayerTime,45
;   maxCoolingFanSpeed,100
;   increaseFanForBridging,0
;   bridgingFanSpeed,100
;   use5D,1
;   relativeEdistances,0
;   allowEaxisZeroing,1
;   independentExtruderAxes,0
;   includeM10123,0
;   stickySupport,1
;   applyToolheadOffsets,0
;   gcodeXoffset,0
;   gcodeYoffset,0
;   gcodeZoffset,0
;   overrideMachineDefinition,1
;   machineTypeOverride,0
;   strokeXoverride,150
;   strokeYoverride,150
;   strokeZoverride,150
;   originOffsetXoverride,0
;   originOffsetYoverride,0
;   originOffsetZoverride,0
;   homeXdirOverride,-1
;   homeYdirOverride,-1
;   homeZdirOverride,-1
;   flipXoverride,1
;   flipYoverride,-1
;   flipZoverride,1
;   toolheadOffsets,0,0|0,0|0,0|0,0|0,0|0,0
;   overrideFirmwareConfiguration,1
;   firmwareTypeOverride,RepRap (Marlin/Repetier/Sprinter)
;   GPXconfigOverride,r2
;   baudRateOverride,250000
;   overridePrinterModels,1
;   printerModelsOverride
;   startingGcode,G28 X0 Y0 ; home X and Y axes,G29 ; probe z
;   layerChangeGcode,
;   retractionGcode,
;   toolChangeGcode,
;   endingGcode,M104 S0 T0 ; turn off extruder,M140 S0 T1 ; turn off bed,G28 X0 Y0 ; home,M84 ; disable motors
;   createX3G,0
;   celebration,0
;   celebrationSong,Random Song
;   createMB5G,0
;   postProcessing,
;   defaultSpeed,2400
;   outlineUnderspeed,0.8
;   solidInfillUnderspeed,0.8
;   supportUnderspeed,0.8
;   rapidXYspeed,4200
;   rapidZspeed,1002
;   minBridgingArea,50
;   bridgingExtraInflation,0
;   bridgingExtrusionMultiplier,1
;   bridgingSpeedMultiplier,1
;   filamentDiameter,1.75
;   filamentPricePerKg,22
;   filamentDensity,1.25
;   useMinPrintHeight,0
;   minPrintHeight,0
;   useMaxPrintHeight,0
;   maxPrintHeight,0
;   useDiaphragm,0
;   diaphragmLayerInterval,20
;   robustSlicing,1
;   mergeAllIntoSolid,0
;   onlyRetractWhenCrossingOutline,1
;   retractBetweenLayers,1
;   useRetractionMinTravel,0
;   retractionMinTravel,3
;   retractWhileWiping,0
;   onlyWipeOutlines,1
;   avoidCrossingOutline,0
;   maxMovementDetourFactor,3
;   toolChangeRetractionDistance,12
;   toolChangeExtraRestartDistance,-0.5
;   toolChangeRetractionSpeed,600
;   allowThinWallGapFill,1
;   thinWallAllowedOverlapPercentage,10
;   horizontalSizeCompensation,0
G90
M82
M106 S0
M140 S50
M190 S50
M104 S210 T0
M109 S210 T0
G28 X0 Y0 ; home X and Y axes
G29 ; probe z
G92 E0
G1 E-1.5000 F1800
G1 Z0.140 F1002
; layer 1, Z = 0.14
T0
; tool H0.200 W0.400
; skirt
G1 X24.592 Y17.110 F4200
G1 E0.0000 F540
G92 E0
G1 X24.808 Y16.353 E0.0315 F1200
G1 X27.716 Y12.961 E0.2097
G1 X28.432 Y12.632 E0.2412
G1 X38.830 Y12.632 E0.6562
G1 X39.442 Y12.862 E0.6823
G1 X42.196 Y15.271 E0.8283
G1 X42.505 Y15.847 E0.8544
G1 X42.854 Y18.441 E0.9589
G1 X43.112 Y19.925 E1.0190
G1 X43.246 Y20.560 E1.0449
G1 X43.614 Y22.025 E1.1052
G1 X43.794 Y22.644 E1.1310
G1 X44.271 Y24.082 E1.1914
G1 X44.494 Y24.682 E1.2170
G1 X45.543 Y25.465 E1.2692
G1 X47.828 Y26.974 E1.3785
G1 X50.193 Y28.351 E1.4877
G1 X52.634 Y29.589 E1.5970
G1 X55.144 Y30.687 E1.7063
G1 X57.709 Y31.641 E1.8155
G1 X60.326 Y32.443 E1.9248
G1 X62.984 Y33.098 E2.0340
G1 X65.673 Y33.597 E2.1432
G1 X68.391 Y33.941 E2.2525
G1 X71.109 Y34.131 E2.3613
G1 X76.030 Y34.166 E2.5577
G1 X78.877 Y34.132 E2.6713
G1 X81.608 Y33.941 E2.7806
G1 X84.325 Y33.597 E2.8899
G1 X87.015 Y33.098 E2.9991
G1 X89.675 Y32.443 E3.1084
G1 X92.290 Y31.641 E3.2176
G1 X94.855 Y30.687 E3.3268
G1 X97.366 Y29.588 E3.4362
G1 X99.807 Y28.351 E3.5455
G1 X102.171 Y26.974 E3.6546
G1 X104.455 Y25.465 E3.7639
G1 X105.490 Y24.692 E3.8155
G1 X105.764 Y23.983 E3.8458
G1 X105.974 Y23.374 E3.8715
G1 X106.412 Y21.926 E3.9319
G1 X106.578 Y21.297 E3.9579
G1 X106.908 Y19.827 E4.0180
G1 X107.025 Y19.191 E4.0438
G1 X107.526 Y15.793 E4.1809
G1 X107.838 Y15.226 E4.2067
G1 X110.581 Y12.858 E4.3513
G1 X111.188 Y12.632 E4.3772
G1 X121.567 Y12.632 E4.7914
G1 X122.283 Y12.961 E4.8229
G1 X125.190 Y16.353 E5.0012
G1 X125.406 Y17.111 E5.0326
G1 X124.649 Y22.006 E5.2304
G1 X124.644 Y22.035 E5.2315
G1 X124.615 Y22.189 E5.2378
G1 X124.609 Y22.217 E5.2389
G1 X124.205 Y24.049 E5.3138
G1 X124.200 Y24.069 E5.3146
G1 X124.174 Y24.174 E5.3189
G1 X124.169 Y24.194 E5.3197
G1 X123.920 Y25.124 E5.3582
G1 X123.917 Y25.136 E5.3587
G1 X123.897 Y25.204 E5.3615
G1 X123.894 Y25.217 E5.3620
G1 X123.619 Y26.135 E5.4003
G1 X123.613 Y26.153 E5.4010
G1 X123.581 Y26.252 E5.4052
G1 X123.575 Y26.270 E5.4059
G1 X122.975 Y28.006 E5.4792
G1 X122.966 Y28.030 E5.4803
G1 X122.916 Y28.163 E5.4859
G1 X122.906 Y28.187 E5.4870
G1 X122.196 Y29.911 E5.5614
G1 X122.188 Y29.929 E5.5622
G1 X122.145 Y30.027 E5.5665
G1 X122.137 Y30.045 E5.5672
G1 X121.492 Y31.437 E5.6285
G1 X121.373 Y31.627 E5.6374
G1 X120.603 Y32.574 E5.6862
G1 X120.441 Y32.729 E5.6951
G1 X116.840 Y35.411 E5.8743
G1 X116.819 Y35.426 E5.8753
G1 X116.705 Y35.506 E5.8809
G1 X116.683 Y35.521 E5.8819
G1 X113.387 Y37.693 E6.0395
G1 X113.366 Y37.707 E6.0405
G1 X113.251 Y37.779 E6.0459
G1 X113.229 Y37.791 E6.0469
G1 X109.820 Y39.777 E6.2044
G1 X109.798 Y39.789 E6.2054
G1 X109.677 Y39.855 E6.2109
G1 X109.654 Y39.867 E6.2119
G1 X106.136 Y41.658 E6.3695
G1 X106.113 Y41.670 E6.3705
G1 X105.989 Y41.729 E6.3760
G1 X105.966 Y41.739 E6.3770
G1 X102.352 Y43.329 E6.5346
G1 X102.328 Y43.339 E6.5356
G1 X102.199 Y43.392 E6.5412
G1 X102.176 Y43.401 E6.5422
G1 X98.477 Y44.784 E6.6998
G1 X98.454 Y44.792 E6.7008
G1 X98.324 Y44.836 E6.7062
G1 X98.300 Y44.844 E6.7073
G1 X94.532 Y46.017 E6.8648
G1 X94.508 Y46.024 E6.8658
G1 X94.375 Y46.062 E6.8713
G1 X94.350 Y46.068 E6.8723
G1 X90.522 Y47.027 E7.0298
G1 X90.497 Y47.033 E7.0308
G1 X90.362 Y47.063 E7.0364
G1 X90.337 Y47.068 E7.0374
G1 X86.461 Y47.810 E7.1949
G1 X86.436 Y47.814 E7.1959
G1 X86.301 Y47.836 E7.2014
G1 X86.276 Y47.840 E7.2024
G1 X82.362 Y48.363 E7.3599
G1 X82.337 Y48.366 E7.3610
G1 X82.199 Y48.381 E7.3665
G1 X82.174 Y48.383 E7.3675
G1 X78.241 Y48.685 E7.5250
G1 X78.216 Y48.686 E7.5259
G1 X78.085 Y48.693 E7.5312
G1 X78.060 Y48.694 E7.5322
G1 X75.230 Y48.758 E7.6452
G1 X75.210 Y48.758 E7.6459
G1 X75.105 Y48.758 E7.6501
G1 X75.085 Y48.758 E7.6509
G1 X71.948 Y48.694 E7.7762
G1 X71.923 Y48.693 E7.7772
G1 X71.785 Y48.686 E7.7827
G1 X71.760 Y48.685 E7.7837
G1 X67.824 Y48.383 E7.9412
G1 X67.798 Y48.381 E7.9423
G1 X67.661 Y48.366 E7.9478
G1 X67.635 Y48.363 E7.9488
G1 X63.724 Y47.840 E8.1063
G1 X63.699 Y47.836 E8.1073
G1 X63.564 Y47.814 E8.1128
G1 X63.539 Y47.810 E8.1138
G1 X59.663 Y47.068 E8.2713
G1 X59.638 Y47.063 E8.2723
G1 X59.503 Y47.033 E8.2778
G1 X59.478 Y47.027 E8.2788
G1 X55.650 Y46.068 E8.4364
G1 X55.625 Y46.061 E8.4374
G1 X55.492 Y46.024 E8.4429
G1 X55.468 Y46.017 E8.4439
G1 X51.700 Y44.844 E8.6014
G1 X51.676 Y44.836 E8.6024
G1 X51.546 Y44.792 E8.6079
G1 X51.523 Y44.784 E8.6089
G1 X47.824 Y43.401 E8.7665
G1 X47.801 Y43.392 E8.7675
G1 X47.672 Y43.339 E8.7731
G1 X47.648 Y43.329 E8.7741
G1 X44.034 Y41.739 E8.9316
G1 X44.011 Y41.729 E8.9327
G1 X43.886 Y41.670 E8.9382
G1 X43.864 Y41.658 E8.9392
G1 X40.346 Y39.867 E9.0967
G1 X40.324 Y39.856 E9.0978
G1 X40.203 Y39.790 E9.1032
G1 X40.181 Y39.777 E9.1043
G1 X36.769 Y37.792 E9.2618
G1 X36.748 Y37.779 E9.2628
G1 X36.631 Y37.706 E9.2683
G1 X36.610 Y37.693 E9.2693
G1 X33.316 Y35.520 E9.4268
G1 X33.295 Y35.506 E9.4278
G1 X33.181 Y35.426 E9.4333
G1 X33.160 Y35.411 E9.4344
G1 X29.543 Y32.719 E9.6143
G1 X29.377 Y32.559 E9.6235
G1 X28.590 Y31.576 E9.6738
G1 X28.470 Y31.379 E9.6830
G1 X27.483 Y29.165 E9.7797
G1 X27.475 Y29.147 E9.7805
G1 X27.433 Y29.046 E9.7849
G1 X27.425 Y29.028 E9.7857
G1 X27.074 Y28.137 E9.8239
G1 X27.070 Y28.125 E9.8244
G1 X27.046 Y28.064 E9.8270
G1 X27.042 Y28.052 E9.8275
G1 X26.715 Y27.151 E9.8658
G1 X26.709 Y27.132 E9.8666
G1 X26.674 Y27.028 E9.8710
G1 X26.667 Y27.009 E9.8718
G1 X26.116 Y25.246 E9.9455
G1 X26.110 Y25.227 E9.9463
G1 X26.082 Y25.129 E9.9504
G1 X26.077 Y25.111 E9.9511
G1 X25.825 Y24.167 E9.9901
G1 X25.820 Y24.149 E9.9909
G1 X25.794 Y24.045 E9.9951
G1 X25.790 Y24.026 E9.9959
G1 X25.385 Y22.197 E10.0707
G1 X25.379 Y22.168 E10.0718
G1 X25.350 Y22.013 E10.0781
G1 X25.345 Y21.984 E10.0793
G1 X24.592 Y17.110 E10.2761
G1 X27.716 Y42.495 F4200
G92 E0
G1 X28.432 Y42.166 E0.0315 F1200
G1 X38.830 Y42.166 E0.4465
G1 X39.442 Y42.396 E0.4726
G1 X42.196 Y44.805 E0.6186
G1 X42.505 Y45.381 E0.6447
G1 X42.854 Y47.975 E0.7492
G1 X43.112 Y49.459 E0.8093
G1 X43.246 Y50.094 E0.8352
G1 X43.614 Y51.559 E0.8955
G1 X43.794 Y52.178 E0.9212
G1 X44.271 Y53.616 E0.9817
G1 X44.494 Y54.216 E1.0072
G1 X45.543 Y54.999 E1.0594
G1 X47.828 Y56.508 E1.1687
G1 X50.193 Y57.885 E1.2780
G1 X52.634 Y59.123 E1.3872
G1 X55.144 Y60.221 E1.4965
G1 X57.709 Y61.175 E1.6058
G1 X60.326 Y61.977 E1.7150
G1 X62.984 Y62.632 E1.8243
G1 X65.673 Y63.131 E1.9334
G1 X68.391 Y63.475 E2.0428
G1 X71.109 Y63.665 E2.1515
G1 X76.030 Y63.700 E2.3480
G1 X78.877 Y63.666 E2.4616
G1 X81.608 Y63.475 E2.5709
G1 X84.325 Y63.131 E2.6802
G1 X87.014 Y62.632 E2.7893
G1 X89.675 Y61.977 E2.8987
G1 X92.290 Y61.175 E3.0079
G1 X94.855 Y60.221 E3.1171
G1 X97.366 Y59.122 E3.2265
G1 X99.807 Y57.885 E3.3357
G1 X102.171 Y56.508 E3.4449
G1 X104.455 Y54.999 E3.5542
G1 X105.490 Y54.226 E3.6057
G1 X105.764 Y53.517 E3.6361
G1 X105.974 Y52.908 E3.6618
G1 X106.412 Y51.460 E3.7222
G1 X106.578 Y50.831 E3.7481
G1 X106.908 Y49.361 E3.8082
G1 X107.025 Y48.725 E3.8340
G1 X107.526 Y45.327 E3.9711
G1 X107.838 Y44.760 E3.9970
G1 X110.581 Y42.392 E4.1416
G1 X111.188 Y42.166 E4.1675
G1 X121.567 Y42.166 E4.5817
G1 X122.283 Y42.495 E4.6131
G1 X125.190 Y45.887 E4.7914
G1 X125.406 Y46.645 E4.8229
G1 X124.649 Y51.540 E5.0206
G1 X124.644 Y51.569 E5.0218
G1 X124.615 Y51.723 E5.0280
G1 X124.609 Y51.751 E5.0292
G1 X124.205 Y53.583 E5.1041
G1 X124.200 Y53.603 E5.1049
G1 X124.174 Y53.708 E5.1092
G1 X124.169 Y53.728 E5.1100
G1 X123.920 Y54.658 E5.1484
G1 X123.917 Y54.670 E5.1489
G1 X123.897 Y54.738 E5.1518
G1 X123.894 Y54.751 E5.1523
G1 X123.619 Y55.669 E5.1906
G1 X123.613 Y55.687 E5.1913
G1 X123.581 Y55.786 E5.1954
G1 X123.575 Y55.804 E5.1962
G1 X122.975 Y57.540 E5.2695
G1 X122.966 Y57.564 E5.2705
G1 X122.916 Y57.697 E5.2762
G1 X122.906 Y57.721 E5.2772
G1 X122.196 Y59.445 E5.3517
G1 X122.188 Y59.463 E5.3525
G1 X122.145 Y59.561 E5.3567
G1 X122.137 Y59.579 E5.3575
G1 X121.492 Y60.971 E5.4187
G1 X121.373 Y61.161 E5.4277
G1 X120.603 Y62.108 E5.4764
G1 X120.441 Y62.263 E5.4853
G1 X116.840 Y64.945 E5.6645
G1 X116.819 Y64.960 E5.6656
G1 X116.705 Y65.040 E5.6712
G1 X116.683 Y65.055 E5.6722
G1 X113.387 Y67.227 E5.8297
G1 X113.366 Y67.241 E5.8307
G1 X113.251 Y67.312 E5.8362
G1 X113.229 Y67.325 E5.8372
G1 X109.820 Y69.311 E5.9946
G1 X109.798 Y69.323 E5.9956
G1 X109.677 Y69.389 E6.0012
G1 X109.654 Y69.401 E6.0022
G1 X106.136 Y71.192 E6.1597
G1 X106.113 Y71.204 E6.1607
G1 X105.989 Y71.263 E6.1663
G1 X105.965 Y71.273 E6.1673
G1 X102.352 Y72.863 E6.3249
G1 X102.328 Y72.873 E6.3259
G1 X102.199 Y72.926 E6.3314
G1 X102.176 Y72.935 E6.3324
G1 X98.477 Y74.318 E6.4900
G1 X98.454 Y74.326 E6.4910
G1 X98.324 Y74.370 E6.4965
G1 X98.300 Y74.378 E6.4975
G1 X94.532 Y75.551 E6.6550
G1 X94.508 Y75.558 E6.6560
G1 X94.375 Y75.596 E6.6615
G1 X94.350 Y75.602 E6.6625
G1 X90.522 Y76.561 E6.8201
G1 X90.497 Y76.567 E6.8211
G1 X90.362 Y76.597 E6.8266
G1 X90.337 Y76.602 E6.8276
G1 X86.461 Y77.344 E6.9851
G1 X86.436 Y77.348 E6.9861
G1 X86.300 Y77.370 E6.9916
G1 X86.276 Y77.374 E6.9926
G1 X82.362 Y77.897 E7.1502
G1 X82.337 Y77.900 E7.1512
G1 X82.199 Y77.915 E7.1567
G1 X82.174 Y77.917 E7.1578
G1 X78.241 Y78.219 E7.3152
G1 X78.216 Y78.220 E7.3162
G1 X78.085 Y78.227 E7.3214
G1 X78.060 Y78.228 E7.3224
G1 X75.230 Y78.292 E7.4354
G1 X75.210 Y78.292 E7.4362
G1 X75.105 Y78.292 E7.4404
G1 X75.085 Y78.292 E7.4412
G1 X71.948 Y78.228 E7.5664
G1 X71.923 Y78.227 E7.5674
G1 X71.785 Y78.220 E7.5729
G1 X71.760 Y78.219 E7.5739
G1 X67.824 Y77.917 E7.7315
G1 X67.798 Y77.915 E7.7325
G1 X67.661 Y77.900 E7.7381
G1 X67.635 Y77.897 E7.7391
G1 X63.724 Y77.374 E7.8966
G1 X63.699 Y77.370 E7.8976
G1 X63.564 Y77.348 E7.9030
G1 X63.539 Y77.344 E7.9040
G1 X59.663 Y76.602 E8.0616
G1 X59.638 Y76.597 E8.0626
G1 X59.503 Y76.567 E8.0681
G1 X59.478 Y76.561 E8.0691
G1 X55.650 Y75.602 E8.2266
G1 X55.625 Y75.595 E8.2277
G1 X55.492 Y75.558 E8.2332
G1 X55.468 Y75.551 E8.2342
G1 X51.700 Y74.378 E8.3917
G1 X51.676 Y74.370 E8.3927
G1 X51.546 Y74.326 E8.3982
G1 X51.523 Y74.318 E8.3992
G1 X47.824 Y72.935 E8.5567
G1 X47.801 Y72.926 E8.5578
G1 X47.672 Y72.873 E8.5633
G1 X47.648 Y72.863 E8.5643
G1 X44.034 Y71.273 E8.7219
G1 X44.011 Y71.263 E8.7229
G1 X43.886 Y71.204 E8.7284
G1 X43.864 Y71.192 E8.7294
G1 X40.346 Y69.401 E8.8870
G1 X40.324 Y69.390 E8.8880
G1 X40.203 Y69.324 E8.8935
G1 X40.181 Y69.311 E8.8945
G1 X36.769 Y67.326 E9.0520
G1 X36.748 Y67.313 E9.0530
G1 X36.631 Y67.241 E9.0585
G1 X36.610 Y67.227 E9.0595
G1 X33.316 Y65.054 E9.2170
G1 X33.295 Y65.040 E9.2181
G1 X33.181 Y64.960 E9.2236
G1 X33.160 Y64.945 E9.2246
G1 X29.543 Y62.253 E9.4046
G1 X29.377 Y62.093 E9.4138
G1 X28.590 Y61.110 E9.4640
G1 X28.470 Y60.913 E9.4732
G1 X27.483 Y58.700 E9.5700
G1 X27.475 Y58.681 E9.5708
G1 X27.433 Y58.580 E9.5751
G1 X27.425 Y58.562 E9.5759
G1 X27.074 Y57.671 E9.6142
G1 X27.070 Y57.659 E9.6147
G1 X27.047 Y57.598 E9.6173
G1 X27.042 Y57.586 E9.6178
G1 X26.715 Y56.686 E9.6560
G1 X26.709 Y56.666 E9.6568
