; G-Code generated by Simplify3D(R) Version 3.0.2
; Sep 30, 2015 at 12:15:24 PM
; Settings Summary
;   processName,Process1
;   applyToModels,twistFlatHandle_fixed
;   profileName,PrinterBot Simple Metal Custom (modified)
;   profileVersion,2015-05-01 08:00:00
;   baseProfile,Default (modified)
;   printMaterial,SS PLA
;   printQuality,Medium
;   printExtruders,
;   extruderName,Primary Extruder
;   extruderToolheadNumber,0
;   extruderDiameter,0.4
;   extruderAutoWidth,0
;   extruderWidth,0.4
;   extrusionMultiplier,1.2
;   extruderUseRetract,1
;   extruderRetractionDistance,1.5
;   extruderExtraRestartDistance,0
;   extruderRetractionZLift,0
;   extruderRetractionSpeed,1800
;   extruderUseCoasting,0
;   extruderCoastingDistance,0.2
;   extruderUseWipe,0
;   extruderWipeDistance,5
;   primaryExtruder,0
;   layerHeight,0.2
;   topSolidLayers,3
;   bottomSolidLayers,3
;   perimeterOutlines,2
;   printPerimetersInsideOut,1
;   startPointOption,2
;   startPointOriginX,0
;   startPointOriginY,0
;   startPointOriginZ,300
;   sequentialIslands,0
;   spiralVaseMode,0
;   firstLayerHeightPercentage,90
;   firstLayerWidthPercentage,100
;   firstLayerUnderspeed,0.5
;   useRaft,0
;   raftExtruder,0
;   raftLayers,3
;   raftOffset,3
;   raftSeparationDistance,0.14
;   raftInfill,85
;   disableRaftBaseLayers,0
;   useSkirt,1
;   skirtExtruder,0
;   skirtLayers,1
;   skirtOutlines,5
;   skirtOffset,4
;   usePrimePillar,0
;   primePillarExtruder,999
;   primePillarWidth,12
;   primePillarLocation,7
;   primePillarSpeedMultiplier,1
;   useOozeShield,0
;   oozeShieldExtruder,999
;   oozeShieldOffset,2
;   oozeShieldOutlines,1
;   oozeShieldSidewallShape,1
;   oozeShieldSidewallAngle,30
;   oozeShieldSpeedMultiplier,1
;   infillExtruder,0
;   internalInfillPattern,Rectilinear
;   externalInfillPattern,Rectilinear
;   infillPercentage,20
;   outlineOverlapPercentage,15
;   infillExtrusionWidthPercentage,100
;   minInfillLength,5
;   infillLayerInterval,1
;   infillAngles,45,-45
;   overlapInfillAngles,0
;   generateSupport,0
;   supportExtruder,0
;   supportInfillPercentage,30
;   supportExtraInflation,0.4
;   denseSupportLayers,0
;   denseSupportInfillPercentage,70
;   supportLayerInterval,1
;   supportHorizontalPartOffset,0.3
;   supportUpperSeparationLayers,1
;   supportLowerSeparationLayers,1
;   supportType,0
;   supportGridSpacing,4
;   maxOverhangAngle,45
;   supportAngles,0
;   temperatureName,Primary Extruder,Heated Bed
;   temperatureNumber,0,1
;   temperatureSetpointCount,3,1
;   temperatureSetpointLayers,1,2,3,1
;   temperatureSetpointTemperatures,210,200,190,50
;   temperatureStabilizeAtStartup,1,1
;   temperatureHeatedBed,0,1
;   temperatureRelayBetweenLayers,0,0
;   temperatureRelayBetweenLoops,0,0
;   fanLayers,1,2
;   fanSpeeds,0,100
;   blipFanToFullPower,1
;   adjustSpeedForCooling,1
;   minSpeedLayerTime,15
;   minCoolingSpeedSlowdown,20
;   increaseFanForCooling,0
;   minFanLayerTime,45
;   maxCoolingFanSpeed,100
;   increaseFanForBridging,0
;   bridgingFanSpeed,100
;   use5D,1
;   relativeEdistances,0
;   allowEaxisZeroing,1
;   independentExtruderAxes,0
;   includeM10123,0
;   stickySupport,1
;   applyToolheadOffsets,0
;   gcodeXoffset,0
;   gcodeYoffset,0
;   gcodeZoffset,0
;   overrideMachineDefinition,1
;   machineTypeOverride,0
;   strokeXoverride,150
;   strokeYoverride,150
;   strokeZoverride,150
;   originOffsetXoverride,0
;   originOffsetYoverride,0
;   originOffsetZoverride,0
;   homeXdirOverride,-1
;   homeYdirOverride,-1
;   homeZdirOverride,-1
;   flipXoverride,1
;   flipYoverride,-1
;   flipZoverride,1
;   toolheadOffsets,0,0|0,0|0,0|0,0|0,0|0,0
;   overrideFirmwareConfiguration,1
;   firmwareTypeOverride,RepRap (Marlin/Repetier/Sprinter)
;   GPXconfigOverride,r2
;   baudRateOverride,250000
;   overridePrinterModels,1
;   printerModelsOverride
;   startingGcode,G28 X0 Y0 ; home X and Y axes,G29 ; probe z
;   layerChangeGcode,
;   retractionGcode,
;   toolChangeGcode,
;   endingGcode,M104 S0 T0 ; turn off extruder,M140 S0 T1 ; turn off bed,G28 X0 Y0 ; home,M84 ; disable motors
;   createX3G,0
;   celebration,0
;   celebrationSong,Random Song
;   createMB5G,0
;   postProcessing,
;   defaultSpeed,1800
;   outlineUnderspeed,0.8
;   solidInfillUnderspeed,0.8
;   supportUnderspeed,0.8
;   rapidXYspeed,4200
;   rapidZspeed,1002
;   minBridgingArea,50
;   bridgingExtraInflation,0
;   bridgingExtrusionMultiplier,1
;   bridgingSpeedMultiplier,1
;   filamentDiameter,1.75
;   filamentPricePerKg,56
;   filamentDensity,1.25
;   useMinPrintHeight,0
;   minPrintHeight,0
;   useMaxPrintHeight,0
;   maxPrintHeight,0
;   useDiaphragm,0
;   diaphragmLayerInterval,20
;   robustSlicing,1
;   mergeAllIntoSolid,0
;   onlyRetractWhenCrossingOutline,1
;   retractBetweenLayers,1
;   useRetractionMinTravel,0
;   retractionMinTravel,3
;   retractWhileWiping,0
;   onlyWipeOutlines,1
;   avoidCrossingOutline,0
;   maxMovementDetourFactor,3
;   toolChangeRetractionDistance,12
;   toolChangeExtraRestartDistance,-0.5
;   toolChangeRetractionSpeed,600
;   allowThinWallGapFill,1
;   thinWallAllowedOverlapPercentage,10
;   horizontalSizeCompensation,0
G90
M82
M106 S0
M140 S50
M190 S50
M104 S210 T0
M109 S210 T0
G28 X0 Y0 ; home X and Y axes
G29 ; probe z
G92 E0
G1 E-1.5000 F1800
G1 Z0.180 F1002
; layer 1, Z = 0.18
T0
; tool H0.200 W0.400
; skirt
G1 X27.699 Y69.529 F4200
G1 E0.0000 F540
G92 E0
G1 X28.415 Y69.200 E0.0315 F900
G1 X38.844 Y69.200 E0.4477
G1 X39.457 Y69.430 E0.4738
G1 X42.212 Y71.843 E0.6200
G1 X42.521 Y72.419 E0.6461
G1 X42.862 Y74.979 E0.7492
G1 X43.119 Y76.463 E0.8093
G1 X43.253 Y77.099 E0.8352
G1 X43.618 Y78.563 E0.8955
G1 X43.798 Y79.183 E0.9212
G1 X44.262 Y80.585 E0.9802
G1 X44.522 Y81.260 E1.0090
G1 X45.556 Y82.033 E1.0606
G1 X47.841 Y83.542 E1.1698
G1 X50.206 Y84.919 E1.2791
G1 X52.648 Y86.157 E1.3883
G1 X55.157 Y87.255 E1.4976
G1 X57.722 Y88.209 E1.6069
G1 X60.339 Y89.011 E1.7161
G1 X62.997 Y89.666 E1.8254
G1 X65.686 Y90.165 E1.9345
G1 X68.405 Y90.509 E2.0439
G1 X71.122 Y90.699 E2.1526
G1 X76.017 Y90.734 E2.3480
G1 X78.864 Y90.700 E2.4617
G1 X81.595 Y90.510 E2.5709
G1 X84.312 Y90.165 E2.6802
G1 X87.001 Y89.666 E2.7894
G1 X89.662 Y89.011 E2.8987
G1 X92.277 Y88.209 E3.0079
G1 X94.841 Y87.255 E3.1171
G1 X97.353 Y86.156 E3.2265
G1 X99.794 Y84.919 E3.3358
G1 X102.158 Y83.542 E3.4449
G1 X104.442 Y82.033 E3.5542
G1 X105.477 Y81.260 E3.6058
G1 X105.751 Y80.551 E3.6361
G1 X105.961 Y79.942 E3.6618
G1 X106.399 Y78.494 E3.7222
G1 X106.565 Y77.865 E3.7482
G1 X106.895 Y76.395 E3.8083
G1 X107.012 Y75.760 E3.8341
G1 X107.513 Y72.361 E3.9712
G1 X107.825 Y71.794 E3.9970
G1 X110.568 Y69.426 E4.1417
G1 X111.175 Y69.200 E4.1675
G1 X121.583 Y69.200 E4.5829
G1 X122.299 Y69.529 E4.6144
G1 X125.207 Y72.920 E4.7927
G1 X125.423 Y73.678 E4.8241
G1 X124.666 Y78.580 E5.0221
G1 X124.661 Y78.608 E5.0232
G1 X124.632 Y78.763 E5.0295
G1 X124.626 Y78.791 E5.0307
G1 X124.221 Y80.624 E5.1056
G1 X124.217 Y80.643 E5.1064
G1 X124.191 Y80.749 E5.1107
G1 X124.186 Y80.768 E5.1115
G1 X123.937 Y81.698 E5.1499
G1 X123.933 Y81.711 E5.1505
G1 X123.914 Y81.779 E5.1533
G1 X123.910 Y81.792 E5.1538
G1 X123.635 Y82.710 E5.1921
G1 X123.630 Y82.728 E5.1928
G1 X123.598 Y82.826 E5.1969
G1 X123.592 Y82.844 E5.1977
G1 X122.994 Y84.573 E5.2707
G1 X122.986 Y84.597 E5.2717
G1 X122.936 Y84.729 E5.2774
G1 X122.926 Y84.753 E5.2784
G1 X122.217 Y86.477 E5.3528
G1 X122.209 Y86.495 E5.3536
G1 X122.166 Y86.593 E5.3578
G1 X122.158 Y86.611 E5.3586
G1 X121.513 Y88.003 E5.4199
G1 X121.394 Y88.193 E5.4288
G1 X120.623 Y89.142 E5.4776
G1 X120.462 Y89.297 E5.4865
G1 X116.860 Y91.979 E5.6658
G1 X116.839 Y91.994 E5.6668
G1 X116.724 Y92.075 E5.6724
G1 X116.703 Y92.089 E5.6734
G1 X113.406 Y94.262 E5.8310
G1 X113.385 Y94.275 E5.8320
G1 X113.269 Y94.347 E5.8374
G1 X113.248 Y94.360 E5.8384
G1 X109.838 Y96.346 E5.9959
G1 X109.816 Y96.358 E5.9970
G1 X109.694 Y96.424 E6.0025
G1 X109.672 Y96.436 E6.0035
G1 X106.153 Y98.227 E6.1611
G1 X106.130 Y98.238 E6.1621
G1 X106.005 Y98.298 E6.1676
G1 X105.982 Y98.308 E6.1686
G1 X102.368 Y99.898 E6.3262
G1 X102.344 Y99.908 E6.3272
G1 X102.215 Y99.961 E6.3328
G1 X102.192 Y99.970 E6.3338
G1 X98.493 Y101.352 E6.4914
G1 X98.469 Y101.361 E6.4924
G1 X98.339 Y101.405 E6.4979
G1 X98.315 Y101.413 E6.4989
G1 X94.546 Y102.586 E6.6564
G1 X94.522 Y102.593 E6.6575
G1 X94.389 Y102.630 E6.6630
G1 X94.365 Y102.637 E6.6640
G1 X90.535 Y103.596 E6.8215
G1 X90.511 Y103.602 E6.8226
G1 X90.375 Y103.632 E6.8281
G1 X90.351 Y103.637 E6.8291
G1 X86.474 Y104.378 E6.9866
G1 X86.449 Y104.383 E6.9876
G1 X86.313 Y104.405 E6.9931
G1 X86.288 Y104.408 E6.9941
G1 X82.374 Y104.932 E7.1517
G1 X82.349 Y104.935 E7.1527
G1 X82.212 Y104.949 E7.1583
G1 X82.186 Y104.951 E7.1593
G1 X78.252 Y105.253 E7.3168
G1 X78.228 Y105.254 E7.3177
G1 X78.096 Y105.261 E7.3230
G1 X78.072 Y105.262 E7.3240
G1 X75.274 Y105.325 E7.4357
G1 X75.255 Y105.326 E7.4364
G1 X75.151 Y105.326 E7.4406
G1 X75.131 Y105.325 E7.4414
G1 X71.939 Y105.262 E7.5688
G1 X71.914 Y105.261 E7.5698
G1 X71.775 Y105.255 E7.5753
G1 X71.750 Y105.253 E7.5764
G1 X67.812 Y104.951 E7.7340
G1 X67.786 Y104.949 E7.7350
G1 X67.649 Y104.935 E7.7405
G1 X67.623 Y104.932 E7.7416
G1 X63.711 Y104.408 E7.8991
G1 X63.686 Y104.404 E7.9001
G1 X63.551 Y104.383 E7.9056
G1 X63.526 Y104.378 E7.9066
G1 X59.649 Y103.637 E8.0641
G1 X59.624 Y103.632 E8.0651
G1 X59.489 Y103.602 E8.0706
G1 X59.465 Y103.596 E8.0716
G1 X55.635 Y102.637 E8.2292
G1 X55.611 Y102.630 E8.2302
G1 X55.478 Y102.593 E8.2357
G1 X55.454 Y102.586 E8.2367
G1 X51.685 Y101.413 E8.3943
G1 X51.661 Y101.405 E8.3953
G1 X51.531 Y101.361 E8.4008
G1 X51.507 Y101.352 E8.4018
G1 X47.808 Y99.970 E8.5594
G1 X47.785 Y99.961 E8.5604
G1 X47.656 Y99.908 E8.5659
G1 X47.632 Y99.898 E8.5670
G1 X44.018 Y98.308 E8.7246
G1 X43.994 Y98.298 E8.7256
G1 X43.870 Y98.238 E8.7311
G1 X43.847 Y98.227 E8.7321
G1 X40.326 Y96.435 E8.8898
G1 X40.302 Y96.423 E8.8909
G1 X40.176 Y96.354 E8.8966
G1 X40.153 Y96.341 E8.8976
G1 X36.578 Y94.248 E9.0630
G1 X36.558 Y94.236 E9.0639
G1 X36.445 Y94.166 E9.0692
G1 X36.425 Y94.153 E9.0702
G1 X33.296 Y92.088 E9.2198
G1 X33.275 Y92.074 E9.2208
G1 X33.161 Y91.994 E9.2264
G1 X33.141 Y91.979 E9.2274
G1 X29.523 Y89.287 E9.4074
G1 X29.357 Y89.127 E9.4166
G1 X28.569 Y88.143 E9.4669
G1 X28.449 Y87.946 E9.4761
G1 X27.462 Y85.731 E9.5729
G1 X27.454 Y85.713 E9.5737
G1 X27.412 Y85.613 E9.5780
G1 X27.405 Y85.594 E9.5788
G1 X27.054 Y84.703 E9.6170
G1 X27.050 Y84.691 E9.6175
G1 X27.027 Y84.630 E9.6201
G1 X27.022 Y84.618 E9.6206
G1 X26.696 Y83.719 E9.6588
G1 X26.690 Y83.700 E9.6596
G1 X26.656 Y83.598 E9.6639
G1 X26.649 Y83.580 E9.6647
G1 X26.107 Y81.849 E9.7371
G1 X26.101 Y81.831 E9.7378
G1 X26.073 Y81.732 E9.7419
G1 X26.068 Y81.714 E9.7427
G1 X25.815 Y80.770 E9.7817
G1 X25.810 Y80.751 E9.7825
G1 X25.784 Y80.648 E9.7867
G1 X25.780 Y80.629 E9.7875
G1 X25.373 Y78.796 E9.8624
G1 X25.367 Y78.767 E9.8636
G1 X25.338 Y78.610 E9.8700
G1 X25.333 Y78.581 E9.8711
G1 X24.575 Y73.678 E10.0692
G1 X24.792 Y72.920 E10.1006
G1 X27.699 Y69.529 E10.2789
G1 X27.946 Y69.856 F4200
G92 E0
G1 X28.503 Y69.600 E0.0245 F900
G1 X38.772 Y69.600 E0.4343
G1 X39.248 Y69.779 E0.4546
G1 X41.894 Y72.096 E0.5950
G1 X42.134 Y72.544 E0.6153
G1 X42.466 Y75.039 E0.7158
G1 X42.726 Y76.538 E0.7765
G1 X42.863 Y77.189 E0.8030
G1 X43.232 Y78.668 E0.8639
G1 X43.416 Y79.302 E0.8902
G1 X43.885 Y80.720 E0.9498
G1 X44.190 Y81.512 E0.9837
G1 X45.326 Y82.360 E1.0403
G1 X47.630 Y83.882 E1.1505
G1 X50.015 Y85.270 E1.2606
G1 X52.477 Y86.518 E1.3708
G1 X55.007 Y87.626 E1.4810
G1 X57.594 Y88.588 E1.5912
G1 X60.232 Y89.397 E1.7013
G1 X62.913 Y90.057 E1.8115
G1 X65.624 Y90.560 E1.9216
G1 X68.365 Y90.908 E2.0319
G1 X71.107 Y91.099 E2.1415
G1 X76.018 Y91.134 E2.3376
G1 X78.880 Y91.100 E2.4518
G1 X81.634 Y90.908 E2.5620
G1 X84.374 Y90.560 E2.6722
G1 X87.086 Y90.057 E2.7823
G1 X89.768 Y89.397 E2.8925
G1 X92.406 Y88.588 E3.0027
G1 X94.991 Y87.626 E3.1128
G1 X97.524 Y86.518 E3.2231
G1 X99.985 Y85.270 E3.3332
G1 X102.369 Y83.882 E3.4433
G1 X104.672 Y82.360 E3.5535
G1 X105.809 Y81.512 E3.6101
G1 X106.127 Y80.688 E3.6454
G1 X106.341 Y80.065 E3.6717
G1 X106.784 Y78.602 E3.7327
G1 X106.954 Y77.960 E3.7592
G1 X107.287 Y76.475 E3.8199
G1 X107.406 Y75.825 E3.8463
G1 X107.898 Y72.491 E3.9808
G1 X108.141 Y72.049 E4.0009
G1 X110.774 Y69.776 E4.1398
G1 X111.247 Y69.600 E4.1599
G1 X121.495 Y69.600 E4.5690
G1 X122.052 Y69.856 E4.5934
G1 X124.846 Y73.114 E4.7647
G1 X125.014 Y73.704 E4.7892
G1 X124.271 Y78.516 E4.9835
G1 X124.267 Y78.538 E4.9844
G1 X124.239 Y78.686 E4.9904
G1 X124.235 Y78.708 E4.9913
G1 X123.831 Y80.535 E5.0660
G1 X123.828 Y80.550 E5.0666
G1 X123.803 Y80.652 E5.0708
G1 X123.799 Y80.667 E5.0714
G1 X123.551 Y81.594 E5.1097
G1 X123.548 Y81.603 E5.1101
G1 X123.529 Y81.669 E5.1128
G1 X123.526 Y81.678 E5.1132
G1 X123.253 Y82.594 E5.1513
G1 X123.248 Y82.608 E5.1519
G1 X123.218 Y82.702 E5.1559
G1 X123.213 Y82.716 E5.1565
G1 X122.617 Y84.440 E5.2293
G1 X122.610 Y84.459 E5.2301
G1 X122.563 Y84.585 E5.2355
G1 X122.555 Y84.604 E5.2363
G1 X121.848 Y86.323 E5.3105
G1 X121.842 Y86.337 E5.3111
G1 X121.801 Y86.431 E5.3152
G1 X121.794 Y86.445 E5.3158
G1 X121.161 Y87.813 E5.3760
G1 X121.068 Y87.960 E5.3829
G1 X120.329 Y88.871 E5.4297
G1 X120.203 Y88.991 E5.4367
G1 X116.623 Y91.656 E5.6148
G1 X116.607 Y91.668 E5.6156
G1 X116.497 Y91.745 E5.6210
G1 X116.480 Y91.757 E5.6218
G1 X113.188 Y93.927 E5.7791
G1 X113.172 Y93.937 E5.7799
G1 X113.061 Y94.006 E5.7851
G1 X113.044 Y94.016 E5.7859
G1 X109.639 Y95.999 E5.9432
G1 X109.622 Y96.008 E5.9440
G1 X109.505 Y96.072 E5.9492
G1 X109.488 Y96.081 E5.9500
G1 X105.974 Y97.870 E6.1074
G1 X105.956 Y97.878 E6.1082
G1 X105.837 Y97.935 E6.1135
G1 X105.819 Y97.943 E6.1143
G1 X102.209 Y99.531 E6.2716
G1 X102.191 Y99.539 E6.2724
G1 X102.067 Y99.589 E6.2778
G1 X102.049 Y99.596 E6.2786
G1 X98.355 Y100.977 E6.4359
G1 X98.337 Y100.983 E6.4367
G1 X98.212 Y101.026 E6.4420
G1 X98.194 Y101.032 E6.4428
G1 X94.430 Y102.203 E6.6001
G1 X94.411 Y102.209 E6.6009
G1 X94.284 Y102.244 E6.6061
G1 X94.265 Y102.250 E6.6069
G1 X90.441 Y103.207 E6.7643
G1 X90.422 Y103.212 E6.7650
G1 X90.292 Y103.240 E6.7703
G1 X90.273 Y103.244 E6.7711
G1 X86.401 Y103.985 E6.9285
G1 X86.382 Y103.988 E6.9292
G1 X86.252 Y104.009 E6.9345
G1 X86.233 Y104.012 E6.9353
G1 X82.324 Y104.535 E7.0927
G1 X82.305 Y104.537 E7.0934
G1 X82.173 Y104.551 E7.0987
G1 X82.153 Y104.553 E7.0995
G1 X78.224 Y104.854 E7.2568
G1 X78.205 Y104.855 E7.2575
G1 X78.079 Y104.861 E7.2626
G1 X78.060 Y104.862 E7.2633
G1 X75.267 Y104.925 E7.3749
G1 X75.252 Y104.926 E7.3755
G1 X75.152 Y104.926 E7.3794
G1 X75.137 Y104.926 E7.3800
G1 X71.950 Y104.862 E7.5073
G1 X71.930 Y104.862 E7.5081
G1 X71.797 Y104.855 E7.5134
G1 X71.777 Y104.854 E7.5142
G1 X67.845 Y104.553 E7.6716
G1 X67.825 Y104.551 E7.6724
G1 X67.693 Y104.537 E7.6777
G1 X67.674 Y104.535 E7.6785
G1 X63.767 Y104.012 E7.8358
G1 X63.748 Y104.009 E7.8365
G1 X63.618 Y103.988 E7.8418
G1 X63.599 Y103.985 E7.8426
G1 X59.727 Y103.244 E7.9999
G1 X59.708 Y103.240 E8.0007
G1 X59.578 Y103.212 E8.0060
G1 X59.559 Y103.207 E8.0068
G1 X55.735 Y102.250 E8.1641
G1 X55.716 Y102.244 E8.1649
G1 X55.589 Y102.209 E8.1702
G1 X55.570 Y102.203 E8.1709
G1 X51.806 Y101.032 E8.3283
G1 X51.788 Y101.026 E8.3291
G1 X51.663 Y100.983 E8.3343
G1 X51.645 Y100.977 E8.3351
G1 X47.951 Y99.596 E8.4925
G1 X47.932 Y99.589 E8.4933
G1 X47.809 Y99.539 E8.4986
G1 X47.791 Y99.531 E8.4994
G1 X44.181 Y97.943 E8.6568
G1 X44.163 Y97.935 E8.6575
G1 X44.043 Y97.878 E8.6628
G1 X44.026 Y97.870 E8.6636
G1 X40.510 Y96.080 E8.8211
G1 X40.492 Y96.070 E8.8219
G1 X40.371 Y96.004 E8.8274
G1 X40.353 Y95.994 E8.8282
G1 X36.783 Y93.905 E8.9933
G1 X36.767 Y93.895 E8.9941
G1 X36.659 Y93.828 E8.9991
G1 X36.643 Y93.818 E8.9999
G1 X33.518 Y91.755 E9.1493
G1 X33.502 Y91.744 E9.1501
G1 X33.393 Y91.668 E9.1554
G1 X33.377 Y91.657 E9.1562
G1 X29.782 Y88.981 E9.3351
G1 X29.653 Y88.857 E9.3422
G1 X28.897 Y87.913 E9.3905
G1 X28.804 Y87.760 E9.3976
G1 X27.829 Y85.571 E9.4933
G1 X27.822 Y85.556 E9.4939
G1 X27.782 Y85.460 E9.4981
G1 X27.776 Y85.446 E9.4987
G1 X27.427 Y84.558 E9.5368
G1 X27.424 Y84.549 E9.5372
G1 X27.401 Y84.490 E9.5397
G1 X27.398 Y84.481 E9.5401
